NukeShared/Repository/_OCIO/From_SLog2SGumut_To_LC-709TypeA_.cube
TITLE 	
LUT_3D_SIZE 5
0.000000 0.000000 0.000000
0.415341 0.000000 0.011497
0.833504 0.000000 0.129927
1.000000 0.000000 0.425176
1.000000 0.000000 0.732431
0.000000 0.274396 0.014574
0.222624 0.262243 0.002666
0.811059 0.184497 0.037063
1.000000 0.000000 0.400912
1.000000 0.000000 0.728722
0.000000 0.683982 0.036343
0.000000 0.682885 0.036285
0.566847 0.664857 0.005412
1.000000 0.620306 0.110305
1.000000 0.158554 0.719117
0.000000 0.979988 0.052067
0.000000 0.979877 0.052061
0.000000 0.979382 0.052035
0.822018 0.959730 0.008076
0.980852 0.953753 0.522240
0.000000 1.000000 0.053132
0.000000 1.000000 0.053132
0.000000 1.000000 0.053132
0.000000 1.000000 0.053132
0.886259 0.980667 0.019333
0.004344 0.000000 0.293412
0.419780 0.000000 0.300635
0.831912 0.000000 0.372499
1.000000 0.000000 0.531732
1.000000 0.000000 0.753642
0.000000 0.269054 0.234395
0.254342 0.254844 0.254883
0.808438 0.136591 0.332554
1.000000 0.000000 0.516859
1.000000 0.000000 0.750326
0.000000 0.687598 0.036536
0.000000 0.686239 0.036463
0.568014 0.665970 0.005477
1.000000 0.607460 0.386131
1.000000 0.167913 0.741007
0.000000 0.980367 0.052087
0.000000 0.980256 0.052081
0.000000 0.979763 0.052055
0.822302 0.960204 0.008045
0.984336 0.942463 0.585461
0.000000 1.000000 0.053132
0.000000 1.000000 0.053132
0.000000 1.000000 0.053132
0.000000 1.000000 0.053132
0.886259 0.980667 0.019333
0.010046 0.000000 0.678528
0.477429 0.000000 0.681830
0.825912 0.000000 0.669924
1.000000 0.000000 0.717370
1.000000 0.000000 0.832022
0.000000 0.096736 0.666011
0.246051 0.093329 0.669243
0.796915 0.000000 0.659752
1.000000 0.000000 0.712052
1.000000 0.000000 0.829668
0.000000 0.646925 0.604921
0.000000 0.645111 0.607441
0.627306 0.628105 0.628461
1.000000 0.571842 0.688520
1.000000 0.144462 0.813115
0.000000 0.976686 0.079046
0.000000 0.975957 0.103172
0.000000 0.972928 0.179514
0.864058 0.945490 0.439481
0.999570 0.898044 0.733709
0.000000 1.000000 0.053132
0.000000 1.000000 0.053132
0.000000 1.000000 0.053132
0.000000 1.000000 0.053132
0.886259 0.980667 0.019333
0.208951 0.039391 0.947290
0.559669 0.025055 0.952013
0.811335 0.000000 0.950831
1.000000 0.000000 0.940113
1.000000 0.000000 0.968123
0.000000 0.267267 0.943125
0.388238 0.269067 0.943972
0.793892 0.201272 0.949938
1.000000 0.030781 0.935528
1.000000 0.000000 0.967740
0.000000 0.699187 0.929343
0.000000 0.698124 0.929628
0.645487 0.606669 0.932749
0.999882 0.568752 0.928073
1.000000 0.359203 0.953649
0.000000 0.910276 0.880454
0.000000 0.910064 0.880670
0.000000 0.909119 0.881612
0.900341 0.892322 0.904720
1.000000 0.868222 0.931905
0.000000 1.000000 0.618798
0.000000 1.000000 0.621213
0.000000 1.000000 0.631715
0.000000 1.000000 0.675900
0.976130 0.996677 0.815275
0.670400 0.676082 1.000000
0.716964 0.678621 1.000000
0.876967 0.671859 1.000000
0.998173 0.651538 0.996487
1.000000 0.563353 0.995340
0.638328 0.693295 1.000000
0.695416 0.698856 1.000000
0.859637 0.695634 1.000000
0.996710 0.676587 0.996899
1.000000 0.600443 0.995723
0.449636 0.826839 0.999977
0.558094 0.811410 1.000000
0.777525 0.773572 1.000000
0.985410 0.760258 0.998610
1.000000 0.713024 0.996932
0.000000 0.980367 0.990494
0.000000 0.980341 0.990513
0.000000 0.979789 0.991170
0.917045 0.905615 0.995086
1.000000 0.894112 0.996000
0.000000 0.999658 0.969896
0.000000 0.999654 0.969906
0.000000 0.999638 0.969938
0.000000 0.999558 0.970060
0.986475 0.985189 0.987455
