NukeShared/Repository/_OCIO/From_SLog2SGumut_To_LC-709TypeA_.cube
TITLE 	
LUT_3D_SIZE 33
0.000000 0.000000 0.000000
0.015014 0.000000 0.000084
0.064902 0.000000 0.000448
0.120555 0.000000 0.001071
0.174526 0.000000 0.002012
0.229422 0.000000 0.003336
0.289321 0.000000 0.005241
0.352607 0.000000 0.007964
0.415341 0.000000 0.011497
0.475482 0.000000 0.016516
0.532722 0.000000 0.026667
0.587502 0.000000 0.038308
0.640259 0.000000 0.052446
0.691214 0.000000 0.068610
0.740691 0.000000 0.086156
0.788791 0.000000 0.105492
0.833504 0.000000 0.129927
0.877044 0.000000 0.156732
0.919684 0.000000 0.185440
0.960040 0.000000 0.216910
0.985412 0.000000 0.252247
1.000000 0.000000 0.292085
1.000000 0.000000 0.335720
1.000000 0.000000 0.380522
1.000000 0.000000 0.425176
1.000000 0.000000 0.469364
1.000000 0.000000 0.512890
1.000000 0.000000 0.555848
1.000000 0.000000 0.598111
1.000000 0.000000 0.637070
1.000000 0.000000 0.670993
1.000000 0.000000 0.700874
1.000000 0.000000 0.732431
0.000000 0.000000 0.000000
0.000000 0.000000 0.000000
0.044878 0.000000 0.000332
0.099211 0.000000 0.000824
0.158039 0.000000 0.001677
0.215004 0.000000 0.002949
0.276571 0.000000 0.004802
0.341878 0.000000 0.007465
0.406701 0.000000 0.010970
0.468741 0.000000 0.015122
0.527477 0.000000 0.022252
0.583380 0.000000 0.034127
0.636946 0.000000 0.047900
0.688592 0.000000 0.064213
0.738610 0.000000 0.082014
0.787152 0.000000 0.101215
0.832231 0.000000 0.125052
0.876043 0.000000 0.152460
0.918908 0.000000 0.181602
0.959412 0.000000 0.213213
0.985207 0.000000 0.248559
1.000000 0.000000 0.288844
1.000000 0.000000 0.333055
1.000000 0.000000 0.378208
1.000000 0.000000 0.423273
1.000000 0.000000 0.467816
1.000000 0.000000 0.511637
1.000000 0.000000 0.554827
1.000000 0.000000 0.597320
1.000000 0.000000 0.636477
1.000000 0.000000 0.670566
1.000000 0.000000 0.700555
1.000000 0.000000 0.732118
0.000000 0.023158 0.001233
0.000000 0.022484 0.001197
0.018009 0.020948 0.000683
0.072803 0.019140 0.000000
0.137278 0.015909 0.000044
0.198014 0.011463 0.000780
0.261591 0.005466 0.002521
0.329693 0.001028 0.005336
0.397110 0.000000 0.008939
0.461360 0.000000 0.013232
0.521749 0.000000 0.018149
0.578947 0.000000 0.028952
0.633481 0.000000 0.042935
0.685918 0.000000 0.059702
0.736501 0.000000 0.077866
0.785502 0.000000 0.097269
0.830953 0.000000 0.120416
0.875038 0.000000 0.147953
0.918129 0.000000 0.177610
0.958784 0.000000 0.209403
0.985004 0.000000 0.244784
1.000000 0.000000 0.285920
1.000000 0.000000 0.330350
1.000000 0.000000 0.375866
1.000000 0.000000 0.421352
1.000000 0.000000 0.466257
1.000000 0.000000 0.510377
1.000000 0.000000 0.553801
1.000000 0.000000 0.596524
1.000000 0.000000 0.635881
1.000000 0.000000 0.670138
1.000000 0.000000 0.700234
1.000000 0.000000 0.731805
0.000000 0.051007 0.002716
0.000000 0.050236 0.002675
0.001107 0.049240 0.002532
0.040212 0.046976 0.000419
0.112677 0.044267 0.000058
0.180254 0.039429 0.000000
0.245028 0.033044 0.000219
0.316242 0.023678 0.002085
0.386555 0.012575 0.005658
0.453294 0.003721 0.010045
0.515467 0.000000 0.015099
0.574007 0.000000 0.022081
0.629572 0.000000 0.036515
0.682775 0.000000 0.053032
0.734053 0.000000 0.072052
0.783625 0.000000 0.092384
0.829581 0.000000 0.115640
0.874019 0.000000 0.143641
0.917347 0.000000 0.173437
0.958153 0.000000 0.205461
0.984799 0.000000 0.241040
1.000000 0.000000 0.282930
1.000000 0.000000 0.327597
1.000000 0.000000 0.373488
1.000000 0.000000 0.419408
1.000000 0.000000 0.464687
1.000000 0.000000 0.509105
1.000000 0.000000 0.552766
1.000000 0.000000 0.595689
1.000000 0.000000 0.635282
1.000000 0.000000 0.669708
1.000000 0.000000 0.699913
1.000000 0.000000 0.731490
0.000000 0.087881 0.004666
0.000000 0.086987 0.004619
0.000000 0.086094 0.004571
0.008060 0.084585 0.003321
0.068983 0.081675 0.000807
0.155494 0.078171 0.000040
0.226594 0.072227 0.000000
0.299673 0.063654 0.000000
0.373647 0.051233 0.001511
0.443520 0.035548 0.005548
0.507934 0.018130 0.010613
0.568075 0.002864 0.016700
0.624873 0.000098 0.028234
0.679053 0.000000 0.044798
0.731039 0.000000 0.064460
0.781167 0.000000 0.085628
0.827658 0.000000 0.108899
0.872492 0.000000 0.137853
0.916355 0.000000 0.168629
0.957420 0.000000 0.201353
0.984556 0.000000 0.237561
1.000000 0.000000 0.279454
1.000000 0.000000 0.324412
1.000000 0.000000 0.370747
1.000000 0.000000 0.417171
1.000000 0.000000 0.462890
1.000000 0.000000 0.507648
1.000000 0.000000 0.551582
1.000000 0.000000 0.594734
1.000000 0.000000 0.634598
1.000000 0.000000 0.669216
1.000000 0.000000 0.699545
1.000000 0.000000 0.731131
0.000000 0.132015 0.007012
0.000000 0.131234 0.006970
0.000000 0.130448 0.006928
0.000000 0.129519 0.006879
0.018728 0.127948 0.002470
0.103963 0.123527 0.001815
0.198474 0.121956 0.000397
0.277991 0.114988 0.000000
0.356417 0.106672 0.000000
0.430237 0.095766 0.000125
0.497755 0.081508 0.003560
0.560077 0.062925 0.009102
0.618593 0.039822 0.015468
0.674061 0.015788 0.032307
0.727111 0.000795 0.053318
0.777982 0.000000 0.076129
0.825245 0.000000 0.100188
0.870546 0.000000 0.129667
0.914779 0.000000 0.161980
0.956181 0.000000 0.195689
0.984138 0.000000 0.232746
1.000000 0.000000 0.275128
1.000000 0.000000 0.320470
1.000000 0.000000 0.367367
1.000000 0.000000 0.414422
1.000000 0.000000 0.460688
1.000000 0.000000 0.505864
1.000000 0.000000 0.550134
1.000000 0.000000 0.593568
1.000000 0.000000 0.633763
1.000000 0.000000 0.668617
1.000000 0.000000 0.699098
1.000000 0.000000 0.730694
0.000000 0.175870 0.009346
0.000000 0.175252 0.009313
0.000000 0.174631 0.009280
0.000000 0.174005 0.009247
0.000000 0.172964 0.009191
0.042453 0.171253 0.000000
0.140746 0.167257 0.002108
0.244499 0.168027 0.002197
0.332898 0.157941 0.000000
0.412378 0.150210 0.000000
0.484156 0.140601 0.000000
0.549546 0.128749 0.001590
0.610291 0.114025 0.006013
0.667488 0.095027 0.015531
0.721759 0.068348 0.034653
0.773549 0.036252 0.060129
0.821737 0.009767 0.087348
0.867745 0.000000 0.117282
0.912543 0.000000 0.152114
0.954419 0.000000 0.187838
0.983449 0.000000 0.225916
1.000000 0.000000 0.268854
1.000000 0.000000 0.315339
1.000000 0.000000 0.363184
1.000000 0.000000 0.411034
1.000000 0.000000 0.457981
1.000000 0.000000 0.503677
1.000000 0.000000 0.548363
1.000000 0.000000 0.592143
1.000000 0.000000 0.632744
1.000000 0.000000 0.667886
1.000000 0.000000 0.698553
1.000000 0.000000 0.730162
0.000000 0.222173 0.011809
0.000000 0.221630 0.011780
0.000000 0.221086 0.011751
0.000000 0.220538 0.011722
0.000000 0.219905 0.011689
0.000000 0.218720 0.011626
0.086037 0.216714 0.000000
0.179980 0.212900 0.002555
0.295397 0.216996 0.004385
0.388111 0.202781 0.000000
0.466050 0.195499 0.000000
0.535671 0.186771 0.000000
0.599358 0.176337 0.000363
0.658709 0.163812 0.002365
0.714771 0.147952 0.013945
0.767865 0.126786 0.037416
0.817193 0.097983 0.066239
0.863895 0.059846 0.100125
0.909352 0.018931 0.137313
0.951812 0.000000 0.176081
0.982278 0.000000 0.215946
1.000000 0.000000 0.260103
1.000000 0.000000 0.308093
1.000000 0.000000 0.357467
1.000000 0.000000 0.406844
1.000000 0.000000 0.454645
1.000000 0.000000 0.500990
1.000000 0.000000 0.546192
1.000000 0.000000 0.590400
1.000000 0.000000 0.631500
1.000000 0.000000 0.666995
1.000000 0.000000 0.697889
1.000000 0.000000 0.729513
0.000000 0.274396 0.014574
0.000000 0.273890 0.014547
0.000000 0.273383 0.014520
0.000000 0.272872 0.014493
0.000000 0.272289 0.014462
0.000000 0.271466 0.014418
0.000627 0.270056 0.013864
0.122705 0.267856 0.000000
0.222624 0.262243 0.002666
0.346001 0.272880 0.007556
0.441036 0.253456 0.000061
0.516849 0.246301 0.000000
0.584726 0.238180 0.000000
0.647110 0.228645 0.000000
0.705369 0.217253 0.000000
0.760151 0.202645 0.010329
0.811059 0.184497 0.037063
0.858942 0.161522 0.073507
0.905074 0.128977 0.114602
0.948262 0.074811 0.158948
0.980568 0.012161 0.201851
1.000000 0.000000 0.247767
1.000000 0.000000 0.297848
1.000000 0.000000 0.349425
1.000000 0.000000 0.400912
1.000000 0.000000 0.450344
1.000000 0.000000 0.497679
1.000000 0.000000 0.543524
1.000000 0.000000 0.588263
1.000000 0.000000 0.629976
1.000000 0.000000 0.665905
1.000000 0.000000 0.697077
1.000000 0.000000 0.728722
0.000000 0.329688 0.017517
0.000000 0.329249 0.017494
0.000000 0.328809 0.017470
0.000000 0.328366 0.017447
0.000000 0.327862 0.017420
0.000000 0.327248 0.017387
0.000000 0.326320 0.017338
0.003805 0.324754 0.012994
0.157575 0.322333 0.000000
0.268267 0.315607 0.003226
0.392601 0.336425 0.013406
0.490680 0.309131 0.000502
0.565036 0.301138 0.000000
0.631630 0.293643 0.000000
0.692756 0.284763 0.000000
0.749842 0.274388 0.000000
0.802749 0.261318 0.004589
0.851964 0.245558 0.033439
0.899221 0.225251 0.081449
0.943360 0.196803 0.132318
0.977887 0.158433 0.180986
0.999492 0.092597 0.230244
1.000000 0.006340 0.283721
1.000000 0.000000 0.338473
1.000000 0.000000 0.392491
1.000000 0.000000 0.444053
1.000000 0.000000 0.493250
1.000000 0.000000 0.540238
1.000000 0.000000 0.585631
1.000000 0.000000 0.628109
1.000000 0.000000 0.664572
1.000000 0.000000 0.696086
1.000000 0.000000 0.727757
0.000000 0.385193 0.020471
0.000000 0.384830 0.020452
0.000000 0.384466 0.020433
0.000000 0.384101 0.020413
0.000000 0.383684 0.020391
0.000000 0.383177 0.020364
0.000000 0.382560 0.020331
0.000000 0.381505 0.020275
0.005823 0.379814 0.010518
0.196226 0.377184 0.000000
0.315522 0.371014 0.003019
0.439047 0.395966 0.016494
0.534610 0.371250 0.003990
0.611016 0.356852 0.000054
0.676366 0.349631 0.000000
0.736510 0.341603 0.000000
0.792021 0.332198 0.000000
0.842987 0.320488 0.000019
0.891488 0.306140 0.027207
0.936821 0.287439 0.092566
0.974023 0.262768 0.150962
0.998468 0.229995 0.205296
1.000000 0.182307 0.264757
1.000000 0.097964 0.323354
1.000000 0.012052 0.380794
1.000000 0.000000 0.435028
1.000000 0.000000 0.486535
1.000000 0.000000 0.535634
1.000000 0.000000 0.582382
1.000000 0.000000 0.625765
1.000000 0.000000 0.662938
1.000000 0.000000 0.694874
1.000000 0.000000 0.726577
0.000000 0.439222 0.023332
0.000000 0.438935 0.023316
0.000000 0.438647 0.023301
0.000000 0.438357 0.023286
0.000000 0.438028 0.023268
0.000000 0.437626 0.023247
0.000000 0.437138 0.023221
0.000000 0.436539 0.023189
0.000000 0.435374 0.023128
0.018702 0.433517 0.000000
0.242198 0.430723 0.000000
0.360786 0.423706 0.003457
0.483960 0.453976 0.019243
0.574684 0.435190 0.009730
0.654949 0.412879 0.000608
0.719798 0.404679 0.000000
0.778633 0.397374 0.000000
0.831729 0.388884 0.000000
0.881727 0.378024 0.000296
0.928522 0.364588 0.022649
0.968797 0.347372 0.105613
0.996914 0.325235 0.172314
1.000000 0.295374 0.236036
1.000000 0.255319 0.302114
1.000000 0.177950 0.363854
1.000000 0.045079 0.422334
1.000000 0.000000 0.476915
1.000000 0.000000 0.528414
1.000000 0.000000 0.577406
1.000000 0.000000 0.622693
1.000000 0.000000 0.660931
1.000000 0.000000 0.693388
1.000000 0.000000 0.725134
0.000000 0.491265 0.026101
0.000000 0.491037 0.026089
0.000000 0.490809 0.026077
0.000000 0.490580 0.026065
0.000000 0.490320 0.026051
0.000000 0.490003 0.026034
0.000000 0.489617 0.026014
0.000000 0.489148 0.025989
0.000000 0.488489 0.025954
0.000000 0.487252 0.025888
0.093971 0.485175 0.000000
0.289725 0.482331 0.000000
0.404736 0.474449 0.004480
0.527148 0.507692 0.021020
0.612488 0.498634 0.016684
0.695894 0.470974 0.003061
0.762039 0.457943 0.000067
0.817786 0.450816 0.000000
0.869845 0.442674 0.000000
0.918511 0.432537 0.000041
0.961988 0.419909 0.027095
0.994578 0.404123 0.122367
1.000000 0.384025 0.198521
1.000000 0.356314 0.271517
1.000000 0.319102 0.340939
1.000000 0.259842 0.404556
1.000000 0.164836 0.463152
1.000000 0.031736 0.517988
1.000000 0.000000 0.569659
1.000000 0.000000 0.617506
1.000000 0.000000 0.658393
1.000000 0.000000 0.691562
1.000000 0.000000 0.723556
0.000000 0.541514 0.028776
0.000000 0.541332 0.028766
0.000000 0.541149 0.028756
0.000000 0.540966 0.028747
0.000000 0.540758 0.028736
0.000000 0.540504 0.028722
0.000000 0.540196 0.028706
0.000000 0.539821 0.028686
0.000000 0.539365 0.028661
0.000000 0.538705 0.028626
0.000000 0.537300 0.028552
0.182523 0.535022 0.000000
0.335537 0.532118 0.000000
0.447634 0.524940 0.004050
0.572232 0.561652 0.022540
0.650919 0.556303 0.021603
0.732701 0.530835 0.008321
0.799483 0.511553 0.001162
0.855536 0.502016 0.000025
0.906583 0.494259 0.000000
0.953094 0.484762 0.000000
0.989905 0.472847 0.036300
0.999466 0.458092 0.145414
1.000000 0.438650 0.232912
1.000000 0.412443 0.310592
1.000000 0.377612 0.380631
1.000000 0.327377 0.445251
1.000000 0.247084 0.503502
1.000000 0.071240 0.558298
1.000000 0.000000 0.609355
1.000000 0.000000 0.653804
1.000000 0.000000 0.689149
1.000000 0.000000 0.721622
0.000000 0.590238 0.031356
0.000000 0.590093 0.031348
0.000000 0.589947 0.031340
0.000000 0.589800 0.031332
0.000000 0.589633 0.031324
0.000000 0.589431 0.031313
0.000000 0.589184 0.031300
0.000000 0.588884 0.031284
0.000000 0.588520 0.031265
0.000000 0.588077 0.031242
0.000000 0.587399 0.031206
0.000000 0.585818 0.031122
0.243288 0.583316 0.000000
0.379601 0.580404 0.000000
0.487179 0.572183 0.004922
0.608757 0.607172 0.023128
0.688327 0.611696 0.026004
0.764927 0.590804 0.014892
0.834790 0.566316 0.003621
0.892082 0.552791 0.000347
0.941950 0.544137 0.000000
0.981751 0.535203 0.000000
0.997312 0.523913 0.051270
1.000000 0.509510 0.176952
1.000000 0.489872 0.271672
1.000000 0.463964 0.351558
1.000000 0.431057 0.421381
1.000000 0.386448 0.485575
1.000000 0.316812 0.543274
1.000000 0.198367 0.597794
1.000000 0.006007 0.645899
1.000000 0.000000 0.684392
1.000000 0.000000 0.718994
0.000000 0.637670 0.033878
0.000000 0.637554 0.033872
0.000000 0.637437 0.033866
0.000000 0.637320 0.033860
0.000000 0.637187 0.033853
0.000000 0.637024 0.033844
0.000000 0.636827 0.033833
0.000000 0.636588 0.033821
0.000000 0.636297 0.033805
0.000000 0.635943 0.033786
0.000000 0.635512 0.033763
0.000000 0.634795 0.033725
0.000000 0.632949 0.021340
0.301077 0.630324 0.000000
0.423075 0.627456 0.000000
0.527823 0.619629 0.004588
0.647262 0.653879 0.024080
0.725529 0.663264 0.028750
0.795985 0.649152 0.021793
0.866687 0.624021 0.008944
0.925719 0.605154 0.002027
0.970021 0.593390 0.000075
0.992862 0.584314 0.000000
1.000000 0.573036 0.072367
1.000000 0.558418 0.214713
1.000000 0.538646 0.312609
1.000000 0.513564 0.392861
1.000000 0.482261 0.462004
1.000000 0.440603 0.525615
1.000000 0.378954 0.582855
1.000000 0.278287 0.636913
1.000000 0.021766 0.678779
1.000000 0.000000 0.713283
0.000000 0.683982 0.036343
0.000000 0.683889 0.036338
0.000000 0.683796 0.036333
0.000000 0.683702 0.036328
0.000000 0.683595 0.036323
0.000000 0.683466 0.036316
0.000000 0.683309 0.036307
0.000000 0.683117 0.036297
0.000000 0.682885 0.036285
0.000000 0.682603 0.036270
0.000000 0.682259 0.036251
0.000000 0.681841 0.036229
0.000000 0.680992 0.036184
0.010673 0.678926 0.002834
0.341578 0.676269 0.000000
0.464950 0.673367 0.000000
0.566847 0.664857 0.005412
0.681942 0.696386 0.024614
0.761909 0.712714 0.030789
0.827792 0.704573 0.027587
0.894636 0.682229 0.015941
0.950032 0.660952 0.006318
0.984088 0.646686 0.002421
0.999155 0.634344 0.001273
1.000000 0.620306 0.110305
1.000000 0.605295 0.256709
1.000000 0.585908 0.355322
1.000000 0.561618 0.434335
1.000000 0.531226 0.502565
1.000000 0.491530 0.565274
1.000000 0.435848 0.622068
1.000000 0.346903 0.675325
1.000000 0.158554 0.719117
0.000000 0.729101 0.038739
0.000000 0.729025 0.038735
0.000000 0.728950 0.038731
0.000000 0.728874 0.038727
0.000000 0.728787 0.038723
0.000000 0.728682 0.038717
0.000000 0.728554 0.038711
0.000000 0.728398 0.038702
0.000000 0.728209 0.038692
0.000000 0.727980 0.038680
0.000000 0.727700 0.038666
0.000000 0.727361 0.038648
0.000000 0.726948 0.038626
0.000000 0.725946 0.038573
0.024939 0.723596 0.000388
0.381974 0.720917 0.000000
0.504748 0.718031 0.000000
0.604427 0.709491 0.005485
0.710100 0.734612 0.024508
0.797284 0.759813 0.032192
0.858206 0.755725 0.031625
0.916186 0.740310 0.023914
0.963146 0.721168 0.014597
0.991603 0.704804 0.008397
0.993338 0.692880 0.006662
0.999909 0.666688 0.163223
1.000000 0.650683 0.301038
1.000000 0.631589 0.397678
1.000000 0.607865 0.475352
1.000000 0.577915 0.542498
1.000000 0.540148 0.604440
1.000000 0.488054 0.660581
1.000000 0.408230 0.713253
0.000000 0.770752 0.040946
0.000000 0.770696 0.040943
0.000000 0.770641 0.040940
0.000000 0.770586 0.040937
0.000000 0.770523 0.040934
0.000000 0.770446 0.040930
0.000000 0.770353 0.040925
0.000000 0.770240 0.040919
0.000000 0.770102 0.040911
0.000000 0.769935 0.040902
0.000000 0.769732 0.040892
0.000000 0.769485 0.040879
0.000000 0.769184 0.040863
0.000000 0.768819 0.040843
0.000000 0.767645 0.040781
0.187376 0.765155 0.000000
0.423381 0.762509 0.000000
0.545349 0.759710 0.000000
0.640519 0.751076 0.005766
0.741082 0.773273 0.024722
0.831674 0.804190 0.033525
0.886492 0.803578 0.034956
0.934458 0.794614 0.031117
0.970982 0.781303 0.024803
0.977437 0.771919 0.022264
0.980582 0.759129 0.019419
0.999291 0.712955 0.214058
1.000000 0.694771 0.346091
1.000000 0.675414 0.439326
1.000000 0.651905 0.515636
1.000000 0.622901 0.582067
1.000000 0.587257 0.643234
1.000000 0.536660 0.698562
0.000000 0.810388 0.043056
0.000000 0.810344 0.043053
0.000000 0.810299 0.043051
0.000000 0.810254 0.043048
0.000000 0.810203 0.043046
0.000000 0.810141 0.043042
0.000000 0.810066 0.043038
0.000000 0.809974 0.043034
0.000000 0.809863 0.043028
0.000000 0.809728 0.043020
0.000000 0.809563 0.043012
0.000000 0.809364 0.043001
0.000000 0.809121 0.042988
0.000000 0.808826 0.042972
0.000000 0.808467 0.042953
0.000000 0.806990 0.042875
0.277818 0.804331 0.000000
0.466545 0.801646 0.000000
0.586831 0.798900 0.000000
0.675720 0.789357 0.006808
0.773762 0.810775 0.025271
0.864543 0.844543 0.034376
0.912812 0.846160 0.036877
0.951005 0.841760 0.035896
0.963796 0.836200 0.034626
0.966845 0.828249 0.033155
0.972496 0.810440 0.065101
0.997522 0.755834 0.267344
1.000000 0.734125 0.391032
1.000000 0.715690 0.481331
1.000000 0.693832 0.556078
1.000000 0.667139 0.621434
1.000000 0.632078 0.681496
0.000000 0.849523 0.045138
0.000000 0.849486 0.045136
0.000000 0.849449 0.045134
0.000000 0.849411 0.045132
0.000000 0.849369 0.045130
0.000000 0.849318 0.045127
0.000000 0.849255 0.045124
0.000000 0.849179 0.045120
0.000000 0.849087 0.045115
0.000000 0.848975 0.045109
0.000000 0.848839 0.045102
0.000000 0.848674 0.045093
0.000000 0.848473 0.045082
0.000000 0.848228 0.045069
0.000000 0.847931 0.045054
0.000000 0.847570 0.045034
0.000000 0.845769 0.044939
0.355806 0.842936 0.000000
0.508516 0.840213 0.000000
0.622797 0.837540 0.000000
0.709738 0.827334 0.007401
0.802510 0.845922 0.025535
0.889040 0.882076 0.034457
0.932336 0.886641 0.037909
0.954557 0.884832 0.038561
0.961351 0.881572 0.038649
0.961512 0.875404 0.038488
0.967953 0.855487 0.116612
0.993271 0.801571 0.322609
0.999982 0.771981 0.434623
1.000000 0.753614 0.523319
1.000000 0.731937 0.596711
1.000000 0.705207 0.660683
0.000000 0.887301 0.047149
0.000000 0.887272 0.047147
0.000000 0.887243 0.047146
0.000000 0.887214 0.047144
0.000000 0.887181 0.047143
0.000000 0.887141 0.047141
0.000000 0.887092 0.047138
0.000000 0.887033 0.047135
0.000000 0.886962 0.047131
0.000000 0.886875 0.047126
0.000000 0.886769 0.047121
0.000000 0.886640 0.047114
0.000000 0.886484 0.047106
0.000000 0.886294 0.047095
0.000000 0.886064 0.047083
0.000000 0.885783 0.047068
0.000000 0.885442 0.047050
0.000000 0.883345 0.046938
0.412553 0.880459 0.000000
0.549996 0.877731 0.000000
0.658852 0.875105 0.000000
0.742466 0.864697 0.007715
0.822397 0.876532 0.024576
0.904363 0.913655 0.033782
0.946045 0.924850 0.037532
0.961085 0.923833 0.038915
0.961014 0.920765 0.038986
0.960879 0.914868 0.039121
0.968180 0.892659 0.196679
0.987206 0.849226 0.378201
0.999465 0.810894 0.478313
1.000000 0.790455 0.564104
1.000000 0.768592 0.636066
0.000000 0.923655 0.049075
0.000000 0.923635 0.049074
0.000000 0.923615 0.049073
0.000000 0.923596 0.049072
0.000000 0.923573 0.049071
0.000000 0.923546 0.049070
0.000000 0.923512 0.049068
0.000000 0.923472 0.049066
0.000000 0.923423 0.049063
0.000000 0.923363 0.049060
0.000000 0.923291 0.049056
0.000000 0.923203 0.049052
0.000000 0.923096 0.049046
0.000000 0.922966 0.049039
0.000000 0.922808 0.049031
0.000000 0.922615 0.049021
0.000000 0.922382 0.049008
0.000000 0.922098 0.048993
0.000000 0.919727 0.048868
0.451835 0.916875 0.000000
0.587012 0.914225 0.000000
0.695427 0.911773 0.000000
0.773393 0.901401 0.007863
0.837506 0.904731 0.022790
0.909646 0.937487 0.032325
0.958049 0.959029 0.036641
0.959835 0.957401 0.036970
0.960031 0.954768 0.037179
0.960468 0.948887 0.037647
0.969785 0.925450 0.260346
0.982011 0.892024 0.428750
0.996870 0.851557 0.523781
0.999995 0.826175 0.604746
0.000000 0.954581 0.050715
0.000000 0.954564 0.050714
0.000000 0.954548 0.050713
0.000000 0.954532 0.050712
0.000000 0.954513 0.050711
0.000000 0.954490 0.050710
0.000000 0.954463 0.050708
0.000000 0.954429 0.050706
0.000000 0.954389 0.050704
0.000000 0.954339 0.050702
0.000000 0.954280 0.050699
0.000000 0.954207 0.050695
0.000000 0.954118 0.050690
0.000000 0.954011 0.050684
0.000000 0.953880 0.050677
0.000000 0.953722 0.050669
0.000000 0.953529 0.050659
0.000000 0.953294 0.050646
0.000000 0.953009 0.050631
0.000000 0.950239 0.022453
0.486875 0.947232 0.000000
0.625453 0.944614 0.000000
0.730514 0.942160 0.000000
0.799778 0.931725 0.008206
0.849711 0.928229 0.021007
0.909515 0.954782 0.029683
0.932831 0.964872 0.032622
0.938828 0.966600 0.033400
0.940880 0.966292 0.033708
0.946801 0.965403 0.034597
0.972081 0.952176 0.319014
0.980081 0.926778 0.476835
0.992066 0.892780 0.570810
0.000000 0.979988 0.052067
0.000000 0.979978 0.052066
0.000000 0.979969 0.052066
0.000000 0.979959 0.052065
0.000000 0.979949 0.052065
0.000000 0.979936 0.052064
0.000000 0.979920 0.052063
0.000000 0.979900 0.052062
0.000000 0.979877 0.052061
0.000000 0.979849 0.052059
0.000000 0.979814 0.052058
0.000000 0.979772 0.052055
0.000000 0.979721 0.052053
0.000000 0.979659 0.052049
0.000000 0.979584 0.052045
0.000000 0.979493 0.052040
0.000000 0.979382 0.052035
0.000000 0.979247 0.052027
0.000000 0.979083 0.052019
0.000000 0.978883 0.052008
0.067526 0.976744 0.000000
0.527511 0.974444 0.000000
0.665681 0.971910 0.000000
0.763174 0.969717 0.000000
0.822018 0.959730 0.008076
0.858599 0.949763 0.018789
0.899182 0.966036 0.025455
0.914458 0.972097 0.027902
0.915841 0.971759 0.028241
0.917401 0.971378 0.028622
0.923537 0.969878 0.030122
0.974522 0.975963 0.373297
0.980852 0.953753 0.522240
0.000000 1.000000 0.053132
0.000000 1.000000 0.053132
0.000000 1.000000 0.053132
0.000000 1.000000 0.053132
0.000000 1.000000 0.053132
0.000000 1.000000 0.053132
0.000000 1.000000 0.053132
0.000000 1.000000 0.053132
0.000000 1.000000 0.053132
0.000000 1.000000 0.053132
0.000000 1.000000 0.053132
0.000000 1.000000 0.053132
0.000000 1.000000 0.053132
0.000000 1.000000 0.053132
0.000000 1.000000 0.053132
0.000000 1.000000 0.053132
0.000000 1.000000 0.053132
0.000000 1.000000 0.053132
0.000000 1.000000 0.053132
0.000000 1.000000 0.053132
0.000000 1.000000 0.053132
0.237580 1.000000 0.000000
0.571087 0.998668 0.000000
0.703629 0.996237 0.000000
0.792746 0.993703 0.000411
0.841863 0.984401 0.008055
0.873503 0.977678 0.016721
0.894304 0.978129 0.021871
0.895495 0.977753 0.022247
0.896755 0.977356 0.022644
0.898196 0.976901 0.023099
0.908059 0.975083 0.048113
0.961997 0.979458 0.424210
0.000000 1.000000 0.053132
0.000000 1.000000 0.053132
0.000000 1.000000 0.053132
0.000000 1.000000 0.053132
0.000000 1.000000 0.053132
0.000000 1.000000 0.053132
0.000000 1.000000 0.053132
0.000000 1.000000 0.053132
0.000000 1.000000 0.053132
0.000000 1.000000 0.053132
0.000000 1.000000 0.053132
0.000000 1.000000 0.053132
0.000000 1.000000 0.053132
0.000000 1.000000 0.053132
0.000000 1.000000 0.053132
0.000000 1.000000 0.053132
0.000000 1.000000 0.053132
0.000000 1.000000 0.053132
0.000000 1.000000 0.053132
0.000000 1.000000 0.053132
0.000000 1.000000 0.053132
0.000000 1.000000 0.053132
0.365310 1.000000 0.000000
0.614086 0.999279 0.000000
0.741705 0.998529 0.000000
0.816979 0.996074 0.001885
0.857345 0.986475 0.011003
0.882012 0.981145 0.018153
0.888116 0.979986 0.019937
0.889032 0.979792 0.020208
