NukeShared/Repository/_OCIO/From_SLog2SGumut_To_LC-709_.cube
TITLE 	
LUT_3D_SIZE 5
0.000000 0.000000 0.000000
0.355514 0.000000 0.103666
0.890344 0.000000 0.259621
1.000000 0.000000 0.374470
1.000000 0.000000 0.408942
0.000000 0.278917 0.000000
0.252102 0.271502 0.000000
0.866899 0.196787 0.237038
1.000000 0.000000 0.361445
1.000000 0.000000 0.397483
0.000000 0.698515 0.000000
0.000000 0.696498 0.000000
0.631361 0.679944 0.000000
1.000000 0.652511 0.214466
1.000000 0.641004 0.280021
0.000000 1.000000 0.000000
0.000000 1.000000 0.000000
0.000000 0.996520 0.000000
0.910657 0.980732 0.000000
1.000000 0.974278 0.000000
0.000000 1.000000 0.000000
0.000000 1.000000 0.000000
0.000000 1.000000 0.000000
0.784120 1.000000 0.000000
0.994489 1.000000 0.000000
0.000000 0.000000 0.260980
0.355162 0.000000 0.272483
0.890247 0.000000 0.347461
1.000000 0.000000 0.433431
1.000000 0.000000 0.462023
0.000000 0.259754 0.238581
0.251349 0.251746 0.251473
0.859816 0.253277 0.322253
1.000000 0.201323 0.410087
1.000000 0.184404 0.439430
0.000000 0.693442 0.000000
0.000000 0.690870 0.000000
0.633973 0.671410 0.148104
1.000000 0.615444 0.332890
1.000000 0.599498 0.373868
0.000000 1.000000 0.000000
0.000000 1.000000 0.000000
0.000000 0.992143 0.000000
0.914944 0.971856 0.000000
1.000000 0.961254 0.000000
0.000000 1.000000 0.000000
0.000000 1.000000 0.000000
0.000000 1.000000 0.000000
0.795035 1.000000 0.000000
0.999920 1.000000 0.000000
0.000000 0.000000 0.653595
0.352311 0.000000 0.656863
0.889463 0.000000 0.682402
1.000000 0.000000 0.720306
1.000000 0.000000 0.734796
0.000000 0.000000 0.647731
0.250585 0.000000 0.651575
0.855547 0.000000 0.676731
1.000000 0.000000 0.703536
1.000000 0.000000 0.719562
0.000000 0.650525 0.597499
0.000000 0.647241 0.601543
0.629476 0.630489 0.629807
1.000000 0.644364 0.660179
1.000000 0.650815 0.675336
0.000000 0.979611 0.502978
0.000000 0.977893 0.508639
0.000000 0.967725 0.544127
0.911749 0.949085 0.595647
1.000000 0.936617 0.616228
0.000000 1.000000 0.456898
0.000000 1.000000 0.463311
0.000000 1.000000 0.503574
0.788394 1.000000 0.560085
0.996574 1.000000 0.581020
0.000000 0.000000 0.942726
0.347729 0.000000 0.944688
0.888220 0.000000 0.960282
1.000000 0.000000 0.984277
1.000000 0.000000 0.993705
0.000000 0.000000 0.939228
0.245906 0.000000 0.942084
0.870215 0.000000 0.958202
1.000000 0.000000 0.980954
1.000000 0.000000 0.986684
0.000000 0.573039 0.910356
0.000000 0.566656 0.913123
0.630542 0.547229 0.929248
1.000000 0.512027 0.953463
1.000000 0.522266 0.958653
0.000000 0.938298 0.861816
0.000000 0.935081 0.864530
0.000000 0.925302 0.881871
0.908346 0.908923 0.908528
1.000000 0.914818 0.916756
0.000000 1.000000 0.841161
0.000000 1.000000 0.845287
0.000000 1.000000 0.862343
0.782415 1.000000 0.889616
0.993805 1.000000 0.900706
0.000000 0.000000 1.000000
0.345861 0.000000 1.000000
0.887720 0.000000 1.000000
1.000000 0.000000 1.000000
1.000000 0.000000 1.000000
0.000000 0.000000 1.000000
0.244433 0.000000 1.000000
0.869922 0.000000 1.000000
1.000000 0.000000 1.000000
1.000000 0.000000 1.000000
0.000000 0.537308 1.000000
0.000000 0.529628 1.000000
0.630821 0.509244 1.000000
1.000000 0.467003 1.000000
1.000000 0.455010 1.000000
0.000000 0.920934 0.958871
0.000000 0.916914 0.961225
0.000000 0.906945 0.976268
0.909025 0.890323 0.999560
1.000000 0.884210 1.000000
0.000000 1.000000 0.941152
0.000000 1.000000 0.943851
0.000000 1.000000 0.959091
0.781373 0.998270 0.982860
0.991834 0.992449 0.992205
