NukeShared/Repository/_OCIO/From_SLog2SGumut_To_LC-709_.cube
TITLE 	
LUT_3D_SIZE 33
0.000000 0.000000 0.000000
0.007007 0.000000 0.002043
0.014014 0.000000 0.004086
0.027315 0.000000 0.007965
0.090418 0.000000 0.026366
0.152960 0.000000 0.044602
0.217798 0.000000 0.063509
0.285372 0.000000 0.083213
0.355514 0.000000 0.103666
0.427728 0.000000 0.124724
0.501295 0.000000 0.146176
0.574680 0.000000 0.167574
0.641968 0.000000 0.187195
0.706646 0.000000 0.206055
0.769325 0.000000 0.224332
0.830447 0.000000 0.242155
0.890344 0.000000 0.259621
0.949270 0.000000 0.276803
1.000000 0.000000 0.293759
1.000000 0.000000 0.310533
1.000000 0.000000 0.327159
1.000000 0.000000 0.340456
1.000000 0.000000 0.353608
1.000000 0.000000 0.364849
1.000000 0.000000 0.374470
1.000000 0.000000 0.382586
1.000000 0.000000 0.389338
1.000000 0.000000 0.394874
1.000000 0.000000 0.399326
1.000000 0.000000 0.402827
1.000000 0.000000 0.405511
1.000000 0.000000 0.407505
1.000000 0.000000 0.408942
0.000000 0.005497 0.000000
0.004969 0.005351 0.000000
0.013372 0.004651 0.003444
0.027069 0.000000 0.007735
0.090373 0.000000 0.026323
0.152938 0.000000 0.044582
0.217785 0.000000 0.063497
0.285363 0.000000 0.083205
0.355507 0.000000 0.103660
0.427723 0.000000 0.124719
0.501291 0.000000 0.146172
0.574677 0.000000 0.167571
0.641965 0.000000 0.187192
0.706644 0.000000 0.206053
0.769323 0.000000 0.224330
0.830445 0.000000 0.242153
0.890342 0.000000 0.259619
0.949268 0.000000 0.276802
1.000000 0.000000 0.293758
1.000000 0.000000 0.310531
1.000000 0.000000 0.327158
1.000000 0.000000 0.340455
1.000000 0.000000 0.353607
1.000000 0.000000 0.364848
1.000000 0.000000 0.374469
1.000000 0.000000 0.382585
1.000000 0.000000 0.389337
1.000000 0.000000 0.394873
1.000000 0.000000 0.399325
1.000000 0.000000 0.402826
1.000000 0.000000 0.405510
1.000000 0.000000 0.407504
1.000000 0.000000 0.408941
0.000000 0.010994 0.000000
0.000000 0.010940 0.000000
0.009937 0.010702 0.000000
0.025981 0.009415 0.006622
0.090177 0.000000 0.026142
0.152844 0.000000 0.044496
0.217728 0.000000 0.063444
0.285324 0.000000 0.083169
0.355479 0.000000 0.103634
0.427701 0.000000 0.124699
0.501273 0.000000 0.146155
0.574662 0.000000 0.167558
0.641952 0.000000 0.187181
0.706633 0.000000 0.206043
0.769313 0.000000 0.224321
0.830436 0.000000 0.242145
0.890334 0.000000 0.259612
0.949261 0.000000 0.276795
1.000000 0.000000 0.293751
1.000000 0.000000 0.310526
1.000000 0.000000 0.327153
1.000000 0.000000 0.340450
1.000000 0.000000 0.353602
1.000000 0.000000 0.364843
1.000000 0.000000 0.374464
1.000000 0.000000 0.382581
1.000000 0.000000 0.389333
1.000000 0.000000 0.394869
1.000000 0.000000 0.399321
1.000000 0.000000 0.402822
1.000000 0.000000 0.405506
1.000000 0.000000 0.407500
1.000000 0.000000 0.408937
0.000000 0.021430 0.000000
0.000000 0.021408 0.000000
0.000000 0.021317 0.000000
0.019369 0.020860 0.000000
0.089210 0.000000 0.025228
0.152385 0.000000 0.044069
0.217448 0.000000 0.063186
0.285133 0.000000 0.082992
0.355338 0.000000 0.103504
0.427592 0.000000 0.124598
0.501186 0.000000 0.146075
0.574591 0.000000 0.167492
0.641891 0.000000 0.187124
0.706579 0.000000 0.205993
0.769265 0.000000 0.224277
0.830393 0.000000 0.242105
0.890296 0.000000 0.259576
0.949225 0.000000 0.276762
1.000000 0.000000 0.293721
1.000000 0.000000 0.310498
1.000000 0.000000 0.327127
1.000000 0.000000 0.340425
1.000000 0.000000 0.353579
1.000000 0.000000 0.364821
1.000000 0.000000 0.374443
1.000000 0.000000 0.382560
1.000000 0.000000 0.389313
1.000000 0.000000 0.394849
1.000000 0.000000 0.399301
1.000000 0.000000 0.402803
1.000000 0.000000 0.405486
1.000000 0.000000 0.407481
1.000000 0.000000 0.408918
0.000000 0.070937 0.000000
0.000000 0.070933 0.000000
0.000000 0.070916 0.000000
0.000000 0.070832 0.000000
0.064117 0.069051 0.000000
0.142308 0.063921 0.033329
0.211490 0.052406 0.057403
0.281093 0.011284 0.079172
0.352382 0.000000 0.100738
0.425316 0.000000 0.122480
0.499366 0.000000 0.144386
0.573088 0.000000 0.166100
0.640605 0.000000 0.185934
0.705455 0.000000 0.204954
0.768267 0.000000 0.223355
0.829497 0.000000 0.241277
0.889483 0.000000 0.258825
0.948482 0.000000 0.276076
1.000000 0.000000 0.293090
1.000000 0.000000 0.309914
1.000000 0.000000 0.326584
1.000000 0.000000 0.339912
1.000000 0.000000 0.353093
1.000000 0.000000 0.364355
1.000000 0.000000 0.373994
1.000000 0.000000 0.382125
1.000000 0.000000 0.388888
1.000000 0.000000 0.394432
1.000000 0.000000 0.398891
1.000000 0.000000 0.402397
1.000000 0.000000 0.405085
1.000000 0.000000 0.407083
1.000000 0.000000 0.408522
0.000000 0.120004 0.000000
0.000000 0.120002 0.000000
0.000000 0.119994 0.000000
0.000000 0.119953 0.000000
0.000000 0.119112 0.000000
0.108467 0.116813 0.000000
0.194206 0.112353 0.034998
0.269831 0.104669 0.067367
0.344274 0.091818 0.092734
0.419122 0.068587 0.116525
0.494434 0.000000 0.139710
0.569030 0.000000 0.162283
0.637136 0.000000 0.182687
0.702427 0.000000 0.202128
0.765582 0.000000 0.220854
0.827085 0.000000 0.239036
0.887297 0.000000 0.256795
0.946484 0.000000 0.274223
1.000000 0.000000 0.291387
1.000000 0.000000 0.308340
1.000000 0.000000 0.325122
1.000000 0.000000 0.338530
1.000000 0.000000 0.351783
1.000000 0.000000 0.363102
1.000000 0.000000 0.372785
1.000000 0.000000 0.380952
1.000000 0.000000 0.387744
1.000000 0.000000 0.393311
1.000000 0.000000 0.397787
1.000000 0.000000 0.401307
1.000000 0.000000 0.404005
1.000000 0.000000 0.406010
1.000000 0.000000 0.407454
0.000000 0.170872 0.000000
0.000000 0.170871 0.000000
0.000000 0.170866 0.000000
0.000000 0.170842 0.000000
0.000000 0.170331 0.000000
0.000000 0.168948 0.000000
0.154445 0.166330 0.000000
0.246885 0.162026 0.027676
0.328411 0.155459 0.074458
0.407228 0.145830 0.104121
0.485060 0.131870 0.130362
0.561359 0.111282 0.154816
0.630604 0.079965 0.176414
0.696737 0.000000 0.196712
0.760543 0.000000 0.216087
0.822567 0.000000 0.234780
0.883204 0.000000 0.252954
0.942747 0.000000 0.270724
1.000000 0.000000 0.288177
1.000000 0.000000 0.305377
1.000000 0.000000 0.322373
1.000000 0.000000 0.335934
1.000000 0.000000 0.349324
1.000000 0.000000 0.360750
1.000000 0.000000 0.370520
1.000000 0.000000 0.378755
1.000000 0.000000 0.385600
1.000000 0.000000 0.391210
1.000000 0.000000 0.395719
1.000000 0.000000 0.399265
1.000000 0.000000 0.401982
1.000000 0.000000 0.404001
1.000000 0.000000 0.405455
0.000000 0.223887 0.000000
0.000000 0.223886 0.000000
0.000000 0.223883 0.000000
0.000000 0.223866 0.000000
0.000000 0.223516 0.000000
0.000000 0.222574 0.000000
0.000000 0.220803 0.000000
0.202363 0.217935 0.000000
0.300597 0.213663 0.000000
0.387166 0.207640 0.078325
0.469548 0.199467 0.113115
0.548802 0.188767 0.141725
0.619975 0.176058 0.165696
0.687517 0.160246 0.187605
0.752402 0.139859 0.208157
0.815281 0.111335 0.227753
0.876615 0.057999 0.246646
0.936738 0.000000 0.265004
0.995902 0.000000 0.282947
1.000000 0.000000 0.300563
1.000000 0.000000 0.317917
1.000000 0.000000 0.331731
1.000000 0.000000 0.345347
1.000000 0.000000 0.356952
1.000000 0.000000 0.366862
1.000000 0.000000 0.375209
1.000000 0.000000 0.382144
1.000000 0.000000 0.387823
1.000000 0.000000 0.392387
1.000000 0.000000 0.395975
1.000000 0.000000 0.398723
1.000000 0.000000 0.400765
1.000000 0.000000 0.402236
0.000000 0.278917 0.000000
0.000000 0.278916 0.000000
0.000000 0.278914 0.000000
0.000000 0.278901 0.000000
0.000000 0.278644 0.000000
0.000000 0.277953 0.000000
0.000000 0.276659 0.000000
0.080569 0.274575 0.000000
0.252102 0.271502 0.000000
0.355054 0.267233 0.000000
0.445593 0.261565 0.077965
0.529769 0.254380 0.118908
0.604031 0.246217 0.148093
0.673778 0.236688 0.173121
0.740326 0.225548 0.195795
0.804511 0.212436 0.216947
0.866899 0.196787 0.237038
0.927894 0.177647 0.256354
0.987792 0.153163 0.275082
1.000000 0.118638 0.293355
1.000000 0.044649 0.311268
1.000000 0.000000 0.325476
1.000000 0.000000 0.339442
1.000000 0.000000 0.351319
1.000000 0.000000 0.361445
1.000000 0.000000 0.369963
1.000000 0.000000 0.377033
1.000000 0.000000 0.382818
1.000000 0.000000 0.387465
1.000000 0.000000 0.391115
1.000000 0.000000 0.393911
1.000000 0.000000 0.395988
1.000000 0.000000 0.397483
0.000000 0.335572 0.000000
0.000000 0.335571 0.000000
0.000000 0.335569 0.000000
0.000000 0.335560 0.000000
0.000000 0.335362 0.000000
0.000000 0.334828 0.000000
0.000000 0.333832 0.000000
0.000000 0.332233 0.000000
0.149197 0.329887 0.000000
0.303311 0.326650 0.000000
0.409708 0.322396 0.000000
0.502176 0.317076 0.070578
0.581302 0.311136 0.117883
0.654396 0.304350 0.150109
0.723409 0.296636 0.176941
0.789498 0.287882 0.200877
0.853406 0.277939 0.222993
0.915647 0.266607 0.243862
0.976586 0.253610 0.263828
1.000000 0.238553 0.283113
1.000000 0.220830 0.301874
1.000000 0.203968 0.316670
1.000000 0.183973 0.331155
1.000000 0.163007 0.343432
1.000000 0.140480 0.353874
1.000000 0.115563 0.362641
1.000000 0.085780 0.369906
1.000000 0.035987 0.375846
1.000000 0.000000 0.380611
1.000000 0.000000 0.384353
1.000000 0.000000 0.387218
1.000000 0.000000 0.389345
1.000000 0.000000 0.390876
0.000000 0.393288 0.000000
0.000000 0.393288 0.000000
0.000000 0.393286 0.000000
0.000000 0.393279 0.000000
0.000000 0.393120 0.000000
0.000000 0.392693 0.000000
0.000000 0.391897 0.000000
0.000000 0.390621 0.000000
0.000000 0.388753 0.000000
0.208292 0.386187 0.000000
0.355478 0.382832 0.000000
0.462983 0.378666 0.000000
0.549918 0.374054 0.035733
0.628067 0.368840 0.109790
0.700671 0.362985 0.147317
0.769465 0.356439 0.176952
0.835497 0.349139 0.202748
0.899457 0.341006 0.226239
0.961819 0.331942 0.248190
1.000000 0.321823 0.269043
1.000000 0.310491 0.289079
1.000000 0.300349 0.304745
1.000000 0.289217 0.319985
1.000000 0.278696 0.332838
1.000000 0.268830 0.343731
1.000000 0.259791 0.352851
1.000000 0.251701 0.360394
1.000000 0.244627 0.366549
1.000000 0.238617 0.371482
1.000000 0.233666 0.375352
1.000000 0.229728 0.378312
1.000000 0.226713 0.380509
1.000000 0.224493 0.382090
0.000000 0.450862 0.000000
0.000000 0.450862 0.000000
0.000000 0.450861 0.000000
0.000000 0.450855 0.000000
0.000000 0.450723 0.000000
0.000000 0.450371 0.000000
0.000000 0.449714 0.000000
0.000000 0.448663 0.000000
0.000000 0.447126 0.000000
0.000000 0.445019 0.000000
0.266890 0.442273 0.000000
0.407517 0.438876 0.000000
0.507675 0.435135 0.000000
0.593543 0.430928 0.000000
0.671325 0.426236 0.092041
0.743883 0.421030 0.139408
0.812799 0.415276 0.173245
0.879050 0.408932 0.201611
0.943285 0.401950 0.226919
1.000000 0.394272 0.250262
1.000000 0.385827 0.272235
1.000000 0.378415 0.289181
1.000000 0.370451 0.305509
1.000000 0.363097 0.319180
1.000000 0.356366 0.330704
1.000000 0.350347 0.340315
1.000000 0.345084 0.348238
1.000000 0.340585 0.354690
1.000000 0.336839 0.359852
1.000000 0.333809 0.363895
1.000000 0.331435 0.366985
1.000000 0.329640 0.369277
1.000000 0.328331 0.370925
0.000000 0.503652 0.000000
0.000000 0.503652 0.000000
0.000000 0.503651 0.000000
0.000000 0.503646 0.000000
0.000000 0.503533 0.000000
0.000000 0.503232 0.000000
0.000000 0.502669 0.000000
0.000000 0.501770 0.000000
0.000000 0.500456 0.000000
0.000000 0.498658 0.000000
0.000000 0.496319 0.000000
0.331629 0.493433 0.000000
0.455232 0.490262 0.000000
0.552435 0.486709 0.000000
0.637182 0.482759 0.000000
0.714549 0.478396 0.064789
0.787029 0.473596 0.129868
0.856048 0.468334 0.168813
0.922506 0.462579 0.200025
0.987011 0.456296 0.227266
1.000000 0.449444 0.252058
1.000000 0.443483 0.270779
1.000000 0.437136 0.288569
1.000000 0.431331 0.303312
1.000000 0.426065 0.315650
1.000000 0.421397 0.325884
1.000000 0.417348 0.334289
1.000000 0.413912 0.341112
1.000000 0.411069 0.346558
1.000000 0.408782 0.350817
1.000000 0.406998 0.354068
1.000000 0.405654 0.356477
1.000000 0.404676 0.358208
0.000000 0.554396 0.000000
0.000000 0.554395 0.000000
0.000000 0.554395 0.000000
0.000000 0.554390 0.000000
0.000000 0.554292 0.000000
0.000000 0.554028 0.000000
0.000000 0.553537 0.000000
0.000000 0.552751 0.000000
0.000000 0.551604 0.000000
0.000000 0.550036 0.000000
0.000000 0.547998 0.000000
0.197909 0.545488 0.000000
0.384770 0.542735 0.000000
0.501097 0.539657 0.000000
0.595995 0.536243 0.000000
0.679871 0.532482 0.000000
0.756960 0.528357 0.000000
0.829452 0.523851 0.116449
0.898642 0.518941 0.162509
0.965362 0.513605 0.197163
1.000000 0.507814 0.226614
1.000000 0.502802 0.248047
1.000000 0.497491 0.267963
1.000000 0.492660 0.284211
1.000000 0.488298 0.297663
1.000000 0.484450 0.308737
1.000000 0.481126 0.317780
1.000000 0.478315 0.325092
1.000000 0.475996 0.330909
1.000000 0.474136 0.335449
1.000000 0.472687 0.338907
1.000000 0.471598 0.341467
1.000000 0.470806 0.343305
0.000000 0.603570 0.000000
0.000000 0.603569 0.000000
0.000000 0.603569 0.000000
0.000000 0.603564 0.000000
0.000000 0.603477 0.000000
0.000000 0.603243 0.000000
0.000000 0.602807 0.000000
0.000000 0.602110 0.000000
0.000000 0.601093 0.000000
0.000000 0.599703 0.000000
0.000000 0.597899 0.000000
0.000000 0.595678 0.000000
0.276720 0.593246 0.000000
0.434457 0.590530 0.000000
0.545544 0.587523 0.000000
0.638634 0.584217 0.000000
0.721841 0.580598 0.000000
0.798760 0.576654 0.000000
0.871335 0.572368 0.096943
0.940745 0.567723 0.154059
1.000000 0.562698 0.192985
1.000000 0.558363 0.219104
1.000000 0.553785 0.242387
1.000000 0.549633 0.260887
1.000000 0.545897 0.275945
1.000000 0.542609 0.288197
1.000000 0.539776 0.298120
1.000000 0.537386 0.306094
1.000000 0.535417 0.312412
1.000000 0.533840 0.317325
1.000000 0.532614 0.321060
1.000000 0.531693 0.323819
1.000000 0.531024 0.325797
0.000000 0.651523 0.000000
0.000000 0.651522 0.000000
0.000000 0.651522 0.000000
0.000000 0.651518 0.000000
0.000000 0.651440 0.000000
0.000000 0.651229 0.000000
0.000000 0.650837 0.000000
0.000000 0.650211 0.000000
0.000000 0.649298 0.000000
0.000000 0.648051 0.000000
0.000000 0.646433 0.000000
0.000000 0.644443 0.000000
0.000000 0.642266 0.000000
0.339727 0.639837 0.000000
0.481723 0.637151 0.000000
0.588886 0.634201 0.000000
0.680553 0.630978 0.000000
0.763254 0.627471 0.000000
0.840092 0.623666 0.000000
0.912803 0.619551 0.063311
0.982468 0.615111 0.142942
1.000000 0.611288 0.179701
1.000000 0.607260 0.209271
1.000000 0.603614 0.231540
1.000000 0.600340 0.249117
1.000000 0.597465 0.263141
1.000000 0.594991 0.274348
1.000000 0.592906 0.283271
1.000000 0.591192 0.290292
1.000000 0.589820 0.295726
1.000000 0.588754 0.299842
1.000000 0.587954 0.302874
1.000000 0.587372 0.305046
0.000000 0.698515 0.000000
0.000000 0.698515 0.000000
0.000000 0.698514 0.000000
0.000000 0.698510 0.000000
0.000000 0.698439 0.000000
0.000000 0.698249 0.000000
0.000000 0.697893 0.000000
0.000000 0.697326 0.000000
0.000000 0.696498 0.000000
0.000000 0.695368 0.000000
0.000000 0.693902 0.000000
0.000000 0.692100 0.000000
0.000000 0.690131 0.000000
0.143730 0.687935 0.000000
0.395351 0.685510 0.000000
0.527212 0.682849 0.000000
0.631361 0.679944 0.000000
0.721902 0.676787 0.000000
0.804231 0.673368 0.000000
0.881056 0.669674 0.000000
0.953944 0.665695 0.000000
1.000000 0.662276 0.114462
1.000000 0.658678 0.162039
1.000000 0.655427 0.192262
1.000000 0.652511 0.214466
1.000000 0.649954 0.231492
1.000000 0.647756 0.244767
1.000000 0.645906 0.255163
1.000000 0.644387 0.263251
1.000000 0.643171 0.269462
1.000000 0.642227 0.274138
1.000000 0.641518 0.277571
1.000000 0.641004 0.280021
0.000000 0.744744 0.000000
0.000000 0.744744 0.000000
0.000000 0.744744 0.000000
0.000000 0.744740 0.000000
0.000000 0.744675 0.000000
0.000000 0.744501 0.000000
0.000000 0.744176 0.000000
0.000000 0.743657 0.000000
0.000000 0.742901 0.000000
0.000000 0.741868 0.000000
0.000000 0.740530 0.000000
0.000000 0.738886 0.000000
0.000000 0.737089 0.000000
0.000000 0.735088 0.000000
0.253626 0.732878 0.000000
0.446608 0.730456 0.000000
0.571358 0.727814 0.000000
0.673146 0.724945 0.000000
0.762797 0.721841 0.000000
0.844861 0.718492 0.000000
0.921729 0.714888 0.000000
0.980819 0.711795 0.000000
1.000000 0.708545 0.057854
1.000000 0.705611 0.130237
1.000000 0.702983 0.164977
1.000000 0.700680 0.188539
1.000000 0.698703 0.205826
1.000000 0.697040 0.218887
1.000000 0.695674 0.228819
1.000000 0.694582 0.236327
1.000000 0.693734 0.241923
1.000000 0.693098 0.246000
1.000000 0.692637 0.248895
0.000000 0.790364 0.000000
0.000000 0.790364 0.000000
0.000000 0.790364 0.000000
0.000000 0.790361 0.000000
0.000000 0.790301 0.000000
0.000000 0.790141 0.000000
0.000000 0.789842 0.000000
0.000000 0.789364 0.000000
0.000000 0.788669 0.000000
0.000000 0.787719 0.000000
0.000000 0.786489 0.000000
0.000000 0.784977 0.000000
0.000000 0.783327 0.000000
0.000000 0.781490 0.000000
0.000000 0.779462 0.000000
0.327146 0.777241 0.000000
0.494978 0.774820 0.000000
0.614471 0.772192 0.000000
0.714380 0.769352 0.000000
0.803326 0.766291 0.000000
0.885211 0.762999 0.000000
0.947478 0.760177 0.000000
1.000000 0.757214 0.000000
1.000000 0.754542 0.000000
1.000000 0.752151 0.049855
1.000000 0.750056 0.116544
1.000000 0.748259 0.146917
1.000000 0.746748 0.166866
1.000000 0.745508 0.181003
1.000000 0.744517 0.191260
1.000000 0.743748 0.198705
1.000000 0.743171 0.204038
1.000000 0.742753 0.207784
0.000000 0.835494 0.000000
0.000000 0.835494 0.000000
0.000000 0.835494 0.000000
0.000000 0.835491 0.000000
0.000000 0.835436 0.000000
0.000000 0.835287 0.000000
0.000000 0.835011 0.000000
0.000000 0.834569 0.000000
0.000000 0.833926 0.000000
0.000000 0.833048 0.000000
0.000000 0.831910 0.000000
0.000000 0.830513 0.000000
0.000000 0.828989 0.000000
0.000000 0.827292 0.000000
0.000000 0.825420 0.000000
0.000000 0.823370 0.000000
0.388516 0.821137 0.000000
0.541309 0.818716 0.000000
0.656773 0.816100 0.000000
0.755172 0.813282 0.000000
0.843561 0.810255 0.000000
0.909806 0.807662 0.000000
0.972452 0.804941 0.000000
1.000000 0.802489 0.000000
1.000000 0.800295 0.000000
1.000000 0.798376 0.000000
1.000000 0.796730 0.000000
1.000000 0.795346 0.029670
1.000000 0.794211 0.090678
1.000000 0.793304 0.114298
1.000000 0.792601 0.128729
1.000000 0.792073 0.138213
1.000000 0.791690 0.144552
0.000000 0.880229 0.000000
0.000000 0.880228 0.000000
0.000000 0.880228 0.000000
0.000000 0.880225 0.000000
0.000000 0.880174 0.000000
0.000000 0.880036 0.000000
0.000000 0.879779 0.000000
0.000000 0.879369 0.000000
0.000000 0.878771 0.000000
0.000000 0.877955 0.000000
0.000000 0.876898 0.000000
0.000000 0.875601 0.000000
0.000000 0.874185 0.000000
0.000000 0.872610 0.000000
0.000000 0.870873 0.000000
0.000000 0.868972 0.000000
0.179892 0.866902 0.000000
0.443532 0.864658 0.000000
0.586141 0.862235 0.000000
0.698435 0.859627 0.000000
0.795605 0.856827 0.000000
0.866966 0.854429 0.000000
0.933625 0.851915 0.000000
0.988207 0.849651 0.000000
1.000000 0.847627 0.000000
1.000000 0.845856 0.000000
1.000000 0.844338 0.000000
1.000000 0.843063 0.000000
1.000000 0.842017 0.000000
1.000000 0.841181 0.000000
1.000000 0.840533 0.000000
1.000000 0.840047 0.000000
1.000000 0.839695 0.000000
0.000000 0.916004 0.000000
0.000000 0.916004 0.000000
0.000000 0.916004 0.000000
0.000000 0.916001 0.000000
0.000000 0.915953 0.000000
0.000000 0.915822 0.000000
0.000000 0.915579 0.000000
0.000000 0.915191 0.000000
0.000000 0.914625 0.000000
0.000000 0.913854 0.000000
0.000000 0.912855 0.000000
0.000000 0.911629 0.000000
0.000000 0.910291 0.000000
0.000000 0.908803 0.000000
0.000000 0.907162 0.000000
0.000000 0.905367 0.000000
0.000000 0.903413 0.000000
0.325881 0.901295 0.000000
0.514766 0.899010 0.000000
0.644374 0.896550 0.000000
0.751254 0.893911 0.000000
0.827941 0.891652 0.000000
0.898633 0.889284 0.000000
0.956002 0.887152 0.000000
1.000000 0.885247 0.000000
1.000000 0.883580 0.000000
1.000000 0.882153 0.000000
1.000000 0.880953 0.000000
1.000000 0.879970 0.000000
1.000000 0.879185 0.000000
1.000000 0.878575 0.000000
1.000000 0.878119 0.000000
1.000000 0.877787 0.000000
0.000000 0.951390 0.000000
0.000000 0.951390 0.000000
0.000000 0.951390 0.000000
0.000000 0.951387 0.000000
0.000000 0.951341 0.000000
0.000000 0.951218 0.000000
0.000000 0.950987 0.000000
0.000000 0.950619 0.000000
0.000000 0.950083 0.000000
0.000000 0.949351 0.000000
0.000000 0.948404 0.000000
0.000000 0.947242 0.000000
0.000000 0.945974 0.000000
0.000000 0.944564 0.000000
0.000000 0.943010 0.000000
0.000000 0.941310 0.000000
0.000000 0.939460 0.000000
0.000000 0.937455 0.000000
0.421264 0.935292 0.000000
0.580139 0.932966 0.000000
0.700640 0.930470 0.000000
0.784226 0.928335 0.000000
0.859925 0.926097 0.000000
0.920661 0.924083 0.000000
0.970399 0.922284 0.000000
1.000000 0.920711 0.000000
1.000000 0.919363 0.000000
1.000000 0.918231 0.000000
1.000000 0.917304 0.000000
1.000000 0.916563 0.000000
1.000000 0.915988 0.000000
1.000000 0.915557 0.000000
1.000000 0.915245 0.000000
0.000000 0.981633 0.000000
0.000000 0.981633 0.000000
0.000000 0.981632 0.000000
0.000000 0.981630 0.000000
0.000000 0.981586 0.000000
0.000000 0.981468 0.000000
0.000000 0.981247 0.000000
0.000000 0.980895 0.000000
0.000000 0.980382 0.000000
0.000000 0.979682 0.000000
0.000000 0.978775 0.000000
0.000000 0.977663 0.000000
0.000000 0.976451 0.000000
0.000000 0.975102 0.000000
0.000000 0.973616 0.000000
0.000000 0.971990 0.000000
0.000000 0.970221 0.000000
0.000000 0.968305 0.000000
0.300861 0.966239 0.000000
0.512568 0.964016 0.000000
0.650427 0.961632 0.000000
0.741885 0.959593 0.000000
0.823002 0.957457 0.000000
0.887261 0.955536 0.000000
0.939468 0.953819 0.000000
0.981893 0.952318 0.000000
1.000000 0.951033 0.000000
1.000000 0.949954 0.000000
1.000000 0.949069 0.000000
1.000000 0.948362 0.000000
1.000000 0.947815 0.000000
1.000000 0.947404 0.000000
1.000000 0.947106 0.000000
0.000000 1.000000 0.000000
0.000000 1.000000 0.000000
0.000000 1.000000 0.000000
0.000000 1.000000 0.000000
0.000000 1.000000 0.000000
0.000000 1.000000 0.000000
0.000000 1.000000 0.000000
0.000000 1.000000 0.000000
0.000000 1.000000 0.000000
0.000000 1.000000 0.000000
0.000000 1.000000 0.000000
0.000000 1.000000 0.000000
0.000000 1.000000 0.000000
0.000000 1.000000 0.000000
0.000000 0.999790 0.000000
0.000000 0.998224 0.000000
0.000000 0.996520 0.000000
0.000000 0.994675 0.000000
0.000000 0.992684 0.000000
0.439586 0.990544 0.000000
0.600607 0.988250 0.000000
0.701086 0.986288 0.000000
0.788033 0.984232 0.000000
0.855946 0.982384 0.000000
0.910657 0.980732 0.000000
0.954870 0.979289 0.000000
0.990511 0.978053 0.000000
1.000000 0.977015 0.000000
1.000000 0.976165 0.000000
1.000000 0.975486 0.000000
1.000000 0.974959 0.000000
1.000000 0.974564 0.000000
1.000000 0.974278 0.000000
0.000000 1.000000 0.000000
0.000000 1.000000 0.000000
0.000000 1.000000 0.000000
0.000000 1.000000 0.000000
0.000000 1.000000 0.000000
0.000000 1.000000 0.000000
0.000000 1.000000 0.000000
0.000000 1.000000 0.000000
0.000000 1.000000 0.000000
0.000000 1.000000 0.000000
0.000000 1.000000 0.000000
0.000000 1.000000 0.000000
0.000000 1.000000 0.000000
0.000000 1.000000 0.000000
0.000000 1.000000 0.000000
0.000000 1.000000 0.000000
0.000000 1.000000 0.000000
0.000000 1.000000 0.000000
0.000000 1.000000 0.000000
0.358064 1.000000 0.000000
0.551867 1.000000 0.000000
0.662572 1.000000 0.000000
0.755656 1.000000 0.000000
0.827263 1.000000 0.000000
0.884445 1.000000 0.000000
0.930396 1.000000 0.000000
0.967296 1.000000 0.000000
0.996772 0.999789 0.000000
1.000000 0.998965 0.000000
1.000000 0.998308 0.000000
1.000000 0.997798 0.000000
1.000000 0.997415 0.000000
1.000000 0.997138 0.000000
0.000000 1.000000 0.000000
0.000000 1.000000 0.000000
0.000000 1.000000 0.000000
0.000000 1.000000 0.000000
0.000000 1.000000 0.000000
0.000000 1.000000 0.000000
0.000000 1.000000 0.000000
0.000000 1.000000 0.000000
0.000000 1.000000 0.000000
0.000000 1.000000 0.000000
0.000000 1.000000 0.000000
0.000000 1.000000 0.000000
0.000000 1.000000 0.000000
0.000000 1.000000 0.000000
0.000000 1.000000 0.000000
0.000000 1.000000 0.000000
0.000000 1.000000 0.000000
0.000000 1.000000 0.000000
0.000000 1.000000 0.000000
0.258214 1.000000 0.000000
0.504825 1.000000 0.000000
0.626971 1.000000 0.000000
0.726354 1.000000 0.000000
0.801591 1.000000 0.000000
0.861144 1.000000 0.000000
0.908737 1.000000 0.000000
0.946816 1.000000 0.000000
0.977155 1.000000 0.000000
1.000000 1.000000 0.000000
1.000000 1.000000 0.000000
