NukeShared/Repository/_OCIO/From_SLog2SGumut_To_LC-709_.cube
TITLE 	
LUT_3D_SIZE 9
0.000000 0.000000 0.000000
0.090418 0.000000 0.026366
0.355514 0.000000 0.103666
0.641968 0.000000 0.187195
0.890344 0.000000 0.259621
1.000000 0.000000 0.327159
1.000000 0.000000 0.374470
1.000000 0.000000 0.399326
1.000000 0.000000 0.408942
0.000000 0.070937 0.000000
0.064117 0.069051 0.000000
0.352382 0.000000 0.100738
0.640605 0.000000 0.185934
0.889483 0.000000 0.258825
1.000000 0.000000 0.326584
1.000000 0.000000 0.373994
1.000000 0.000000 0.398891
1.000000 0.000000 0.408522
0.000000 0.278917 0.000000
0.000000 0.278644 0.000000
0.252102 0.271502 0.000000
0.604031 0.246217 0.148093
0.866899 0.196787 0.237038
1.000000 0.044649 0.311268
1.000000 0.000000 0.361445
1.000000 0.000000 0.387465
1.000000 0.000000 0.397483
0.000000 0.503652 0.000000
0.000000 0.503533 0.000000
0.000000 0.500456 0.000000
0.455232 0.490262 0.000000
0.787029 0.473596 0.129868
1.000000 0.449444 0.252058
1.000000 0.426065 0.315650
1.000000 0.411069 0.346558
1.000000 0.404676 0.358208
0.000000 0.698515 0.000000
0.000000 0.698439 0.000000
0.000000 0.696498 0.000000
0.000000 0.690131 0.000000
0.631361 0.679944 0.000000
0.953944 0.665695 0.000000
1.000000 0.652511 0.214466
1.000000 0.644387 0.263251
1.000000 0.641004 0.280021
0.000000 0.880229 0.000000
0.000000 0.880174 0.000000
0.000000 0.878771 0.000000
0.000000 0.874185 0.000000
0.179892 0.866902 0.000000
0.795605 0.856827 0.000000
1.000000 0.847627 0.000000
1.000000 0.842017 0.000000
1.000000 0.839695 0.000000
0.000000 1.000000 0.000000
0.000000 1.000000 0.000000
0.000000 1.000000 0.000000
0.000000 1.000000 0.000000
0.000000 0.996520 0.000000
0.600607 0.988250 0.000000
0.910657 0.980732 0.000000
1.000000 0.976165 0.000000
1.000000 0.974278 0.000000
0.000000 1.000000 0.000000
0.000000 1.000000 0.000000
0.000000 1.000000 0.000000
0.000000 1.000000 0.000000
0.000000 1.000000 0.000000
0.418232 1.000000 0.000000
0.823827 1.000000 0.000000
0.971103 1.000000 0.000000
1.000000 1.000000 0.000000
0.000000 1.000000 0.000000
0.000000 1.000000 0.000000
0.000000 1.000000 0.000000
0.000000 1.000000 0.000000
0.000000 1.000000 0.000000
0.294550 1.000000 0.000000
0.784120 1.000000 0.000000
0.939923 1.000000 0.000000
0.994489 1.000000 0.000000
0.000000 0.000000 0.066375
0.090329 0.000000 0.069301
0.355501 0.000000 0.117220
0.641962 0.000000 0.193522
0.890341 0.000000 0.263674
1.000000 0.000000 0.330105
1.000000 0.000000 0.376912
1.000000 0.000000 0.401559
1.000000 0.000000 0.411103
0.000000 0.066064 0.060679
0.063791 0.064175 0.063911
0.351490 0.039242 0.111268
0.642051 0.000000 0.189094
0.893311 0.000000 0.260239
1.000000 0.000000 0.327477
1.000000 0.000000 0.374816
1.000000 0.000000 0.399709
1.000000 0.000000 0.406139
0.000000 0.278233 0.000000
0.000000 0.277697 0.000000
0.253377 0.269059 0.000000
0.607202 0.229681 0.161163
0.860705 0.228792 0.236739
1.000000 0.172047 0.309000
1.000000 0.076025 0.357986
1.000000 0.000000 0.383324
1.000000 0.000000 0.393073
0.000000 0.503354 0.000000
0.000000 0.502715 0.000000
0.000000 0.499436 0.000000
0.458445 0.486826 0.000000
0.794169 0.454787 0.154802
1.000000 0.411782 0.268141
1.000000 0.397226 0.324841
1.000000 0.401489 0.350572
1.000000 0.403772 0.360312
0.000000 0.698326 0.000000
0.000000 0.697517 0.000000
0.000000 0.695368 0.000000
0.000000 0.688793 0.000000
0.635383 0.675054 0.000000
0.961104 0.649646 0.094183
1.000000 0.621827 0.239867
1.000000 0.604258 0.286995
1.000000 0.597862 0.303081
0.000000 0.880092 0.000000
0.000000 0.879099 0.000000
0.000000 0.877486 0.000000
0.000000 0.872690 0.000000
0.224503 0.865227 0.000000
0.801312 0.851103 0.000000
1.000000 0.834932 0.000000
1.000000 0.824458 0.000000
1.000000 0.820232 0.080818
0.000000 1.000000 0.000000
0.000000 1.000000 0.000000
0.000000 1.000000 0.000000
0.000000 1.000000 0.000000
0.000000 0.994720 0.000000
0.615760 0.986279 0.000000
0.916237 0.973332 0.000000
1.000000 0.966521 0.000000
1.000000 0.963272 0.000000
0.000000 1.000000 0.000000
0.000000 1.000000 0.000000
0.000000 1.000000 0.000000
0.000000 1.000000 0.000000
0.000000 1.000000 0.000000
0.444629 1.000000 0.000000
0.836385 1.000000 0.000000
0.976681 1.000000 0.000000
1.000000 1.000000 0.000000
0.000000 1.000000 0.000000
0.000000 1.000000 0.000000
0.000000 1.000000 0.000000
0.000000 1.000000 0.000000
0.000000 1.000000 0.000000
0.336666 1.000000 0.000000
0.797983 1.000000 0.000000
0.950356 1.000000 0.000000
1.000000 1.000000 0.000000
0.000000 0.000000 0.260980
0.087983 0.000000 0.261423
0.355162 0.000000 0.272483
0.641814 0.000000 0.304720
0.890247 0.000000 0.347461
1.000000 0.000000 0.395993
1.000000 0.000000 0.433431
1.000000 0.000000 0.453951
1.000000 0.000000 0.462023
0.000000 0.000000 0.260190
0.062029 0.000000 0.260881
0.346756 0.000000 0.271470
0.619951 0.000000 0.299627
0.862204 0.000000 0.338144
1.000000 0.000000 0.359409
1.000000 0.000000 0.386797
1.000000 0.000000 0.405899
1.000000 0.000000 0.413641
0.000000 0.259754 0.238581
0.000000 0.258895 0.239198
0.251349 0.251746 0.251473
0.596681 0.259325 0.279887
0.859816 0.253277 0.322253
1.000000 0.231435 0.371710
1.000000 0.201323 0.410087
1.000000 0.177071 0.431150
1.000000 0.184404 0.439430
0.000000 0.495583 0.133399
0.000000 0.495151 0.135329
0.000000 0.492008 0.160713
0.456949 0.479925 0.219541
0.793835 0.447425 0.286308
1.000000 0.454831 0.339230
1.000000 0.450083 0.380848
1.000000 0.442020 0.404079
1.000000 0.438316 0.413165
0.000000 0.693442 0.000000
0.000000 0.692839 0.000000
0.000000 0.690870 0.000000
0.000000 0.684204 0.000000
0.633973 0.671410 0.148104
0.962069 0.643353 0.267682
1.000000 0.615444 0.332890
1.000000 0.603127 0.362958
1.000000 0.599498 0.373868
0.000000 0.876566 0.000000
0.000000 0.875781 0.000000
0.000000 0.874360 0.000000
0.000000 0.869514 0.000000
0.212990 0.862006 0.000000
0.799800 0.848763 0.000000
1.000000 0.832043 0.181498
1.000000 0.821257 0.244240
1.000000 0.816404 0.264673
0.000000 1.000000 0.000000
0.000000 1.000000 0.000000
0.000000 1.000000 0.000000
0.000000 0.998355 0.000000
0.000000 0.992143 0.000000
0.612191 0.983675 0.000000
0.914944 0.971856 0.000000
1.000000 0.964765 0.000000
1.000000 0.961254 0.000000
0.000000 1.000000 0.000000
0.000000 1.000000 0.000000
0.000000 1.000000 0.000000
0.000000 1.000000 0.000000
0.000000 1.000000 0.000000
0.438845 1.000000 0.000000
0.833667 1.000000 0.000000
0.975478 1.000000 0.000000
1.000000 1.000000 0.000000
0.000000 1.000000 0.000000
0.000000 1.000000 0.000000
0.000000 1.000000 0.000000
0.000000 1.000000 0.000000
0.000000 1.000000 0.000000
0.327980 1.000000 0.000000
0.795035 1.000000 0.000000
0.948131 1.000000 0.000000
0.999920 1.000000 0.000000
0.000000 0.000000 0.471263
0.079668 0.000000 0.471457
0.354058 0.000000 0.476409
0.641333 0.000000 0.492034
0.889943 0.000000 0.515298
1.000000 0.000000 0.544838
1.000000 0.000000 0.569601
1.000000 0.000000 0.583816
1.000000 0.000000 0.589523
0.000000 0.000000 0.470919
0.049714 0.000000 0.471605
0.353846 0.000000 0.476783
0.630200 0.000000 0.491925
0.858123 0.000000 0.504308
1.000000 0.000000 0.534212
1.000000 0.000000 0.560616
1.000000 0.000000 0.575450
1.000000 0.000000 0.581220
0.000000 0.180400 0.461923
0.000000 0.176440 0.462539
0.251715 0.165259 0.467522
0.596545 0.113387 0.482807
0.842953 0.000000 0.501021
1.000000 0.000000 0.531812
1.000000 0.000000 0.542680
1.000000 0.000000 0.543683
1.000000 0.000000 0.544051
0.000000 0.469050 0.430817
0.000000 0.467927 0.431486
0.000000 0.464975 0.436854
0.453606 0.454729 0.454080
0.775920 0.458419 0.470750
1.000000 0.465696 0.497727
1.000000 0.466791 0.521982
1.000000 0.465758 0.536103
1.000000 0.469210 0.543552
0.000000 0.677215 0.374281
0.000000 0.676806 0.375607
0.000000 0.674814 0.381809
0.000000 0.668162 0.402696
0.632180 0.656044 0.433445
0.960880 0.627979 0.473846
1.000000 0.637883 0.498252
1.000000 0.640842 0.512819
1.000000 0.640460 0.518997
0.000000 0.864962 0.268898
0.000000 0.864386 0.270835
0.000000 0.862980 0.280644
0.000000 0.858258 0.312109
0.197618 0.850579 0.354307
0.797998 0.838072 0.402536
1.000000 0.820097 0.442597
1.000000 0.806398 0.465441
1.000000 0.800899 0.474310
0.000000 0.994924 0.000000
0.000000 0.994220 0.000000
0.000000 0.993063 0.052334
0.000000 0.989184 0.172660
0.000000 0.982856 0.252041
0.607916 0.974273 0.322245
0.913329 0.963575 0.371597
1.000000 0.955894 0.398408
1.000000 0.952120 0.409078
0.000000 1.000000 0.000000
0.000000 1.000000 0.000000
0.000000 1.000000 0.000000
0.000000 1.000000 0.000000
0.000000 1.000000 0.138572
0.431900 1.000000 0.256426
0.830520 1.000000 0.319234
0.973955 1.000000 0.351124
1.000000 1.000000 0.363074
0.000000 1.000000 0.000000
0.000000 1.000000 0.000000
0.000000 1.000000 0.000000
0.000000 1.000000 0.000000
0.000000 1.000000 0.000000
0.317252 1.000000 0.220949
0.791632 1.000000 0.294284
0.945561 1.000000 0.328556
0.998205 1.000000 0.342059
0.000000 0.000000 0.653595
0.063343 0.000000 0.653717
0.352311 0.000000 0.656863
0.640574 0.000000 0.666951
0.889463 0.000000 0.682402
1.000000 0.000000 0.702719
1.000000 0.000000 0.720306
1.000000 0.000000 0.730615
1.000000 0.000000 0.734796
0.000000 0.000000 0.653377
0.000000 0.000000 0.654211
0.353008 0.000000 0.657569
0.643991 0.000000 0.667910
0.874614 0.000000 0.682653
1.000000 0.000000 0.697135
1.000000 0.000000 0.702632
1.000000 0.000000 0.712703
1.000000 0.000000 0.716884
0.000000 0.000000 0.647731
0.000000 0.000000 0.648508
0.250585 0.000000 0.651575
0.605847 0.000000 0.662026
0.855547 0.000000 0.676731
1.000000 0.000000 0.686636
1.000000 0.000000 0.703536
1.000000 0.000000 0.715140
1.000000 0.000000 0.719562
0.000000 0.422442 0.628876
0.000000 0.419527 0.629522
0.000000 0.416175 0.632759
0.454571 0.404370 0.643268
0.779717 0.384932 0.658851
1.000000 0.375391 0.675071
1.000000 0.351354 0.694761
1.000000 0.337811 0.700952
1.000000 0.334513 0.701444
0.000000 0.650525 0.597499
0.000000 0.648893 0.598146
0.000000 0.647241 0.601543
0.000000 0.640744 0.612735
0.629476 0.630489 0.629807
0.941418 0.638115 0.644954
1.000000 0.644364 0.660179
1.000000 0.647315 0.669616
1.000000 0.650815 0.675336
0.000000 0.846251 0.550563
0.000000 0.845812 0.552261
0.000000 0.844385 0.555654
0.000000 0.839581 0.567776
0.179409 0.831873 0.586971
0.796274 0.819729 0.612296
1.000000 0.799265 0.636080
1.000000 0.794758 0.648050
1.000000 0.796779 0.652034
0.000000 0.979611 0.502978
0.000000 0.979060 0.504737
0.000000 0.977893 0.508639
0.000000 0.973996 0.522368
0.000000 0.967725 0.544127
0.603812 0.958909 0.571997
0.911749 0.949085 0.595647
1.000000 0.940577 0.610238
1.000000 0.936617 0.616228
0.000000 1.000000 0.470981
0.000000 1.000000 0.472858
0.000000 1.000000 0.477143
0.000000 1.000000 0.492156
0.000000 1.000000 0.515862
0.425034 1.000000 0.545794
0.827518 1.000000 0.570677
0.972446 1.000000 0.585326
1.000000 1.000000 0.591366
0.000000 1.000000 0.456898
0.000000 1.000000 0.458840
0.000000 1.000000 0.463311
0.000000 1.000000 0.478949
0.000000 1.000000 0.503574
0.306365 1.000000 0.534478
0.788394 1.000000 0.560085
0.943177 1.000000 0.574815
0.996574 1.000000 0.581020
0.000000 0.000000 0.823623
0.000000 0.000000 0.823712
0.349909 0.000000 0.825991
0.639538 0.000000 0.833344
0.888809 0.000000 0.844730
1.000000 0.000000 0.859924
1.000000 0.000000 0.873268
1.000000 0.000000 0.881171
1.000000 0.000000 0.884391
0.000000 0.000000 0.823465
0.000000 0.000000 0.824465
0.351469 0.000000 0.826961
0.643739 0.000000 0.834557
0.893767 0.000000 0.846131
1.000000 0.000000 0.862149
1.000000 0.000000 0.869141
1.000000 0.000000 0.876850
1.000000 0.000000 0.877803
0.000000 0.000000 0.819392
0.000000 0.000000 0.820338
0.248321 0.000000 0.822518
0.605669 0.000000 0.830164
0.870219 0.000000 0.841830
1.000000 0.000000 0.857131
1.000000 0.000000 0.865615
1.000000 0.000000 0.869423
1.000000 0.000000 0.868875
0.000000 0.343937 0.805946
0.000000 0.338071 0.806786
0.000000 0.333480 0.809070
0.454315 0.318279 0.816514
0.788529 0.286558 0.828419
1.000000 0.243632 0.843088
1.000000 0.247900 0.850358
1.000000 0.229147 0.853381
1.000000 0.221264 0.856206
0.000000 0.611436 0.784133
0.000000 0.608293 0.784837
0.000000 0.606533 0.787197
0.000000 0.599434 0.794962
0.630436 0.588369 0.806993
0.945872 0.573925 0.822476
1.000000 0.573034 0.831064
1.000000 0.565857 0.840662
1.000000 0.563591 0.844416
0.000000 0.819754 0.752934
0.000000 0.817886 0.753875
0.000000 0.816786 0.756238
0.000000 0.812194 0.764313
0.168410 0.804553 0.776938
0.793148 0.794495 0.793655
1.000000 0.797263 0.803104
1.000000 0.799755 0.808038
1.000000 0.802153 0.811566
0.000000 0.958166 0.723255
0.000000 0.957722 0.725391
0.000000 0.956528 0.727554
0.000000 0.952534 0.735710
0.000000 0.946137 0.748745
0.599252 0.937255 0.766534
0.910080 0.928135 0.782422
1.000000 0.917478 0.792881
1.000000 0.913336 0.797070
0.000000 1.000000 0.704523
0.000000 1.000000 0.706653
0.000000 1.000000 0.708876
0.000000 1.000000 0.717367
0.000000 1.000000 0.730889
0.417171 1.000000 0.749406
0.824440 1.000000 0.765739
0.970854 0.997404 0.775406
1.000000 0.994235 0.779612
0.000000 1.000000 0.696615
0.000000 1.000000 0.698740
0.000000 1.000000 0.701008
0.000000 1.000000 0.709638
0.000000 1.000000 0.723370
0.293499 1.000000 0.742198
0.785037 1.000000 0.758765
0.940736 1.000000 0.768463
0.994950 1.000000 0.772563
0.000000 0.000000 0.942726
0.000000 0.000000 0.942800
0.347729 0.000000 0.944688
0.638604 0.000000 0.950791
0.888220 0.000000 0.960282
1.000000 0.000000 0.973021
1.000000 0.000000 0.984277
1.000000 0.000000 0.990971
1.000000 0.000000 0.993705
0.000000 0.000000 0.942596
0.000000 0.000000 0.943729
0.349916 0.000000 0.945829
0.643408 0.000000 0.952172
0.894365 0.000000 0.961878
1.000000 0.000000 0.974382
1.000000 0.000000 0.984245
1.000000 0.000000 0.997595
1.000000 0.000000 0.992990
0.000000 0.000000 0.939228
0.000000 0.000000 0.940300
0.245906 0.000000 0.942084
0.605319 0.000000 0.948458
0.870215 0.000000 0.958202
1.000000 0.000000 0.971035
1.000000 0.000000 0.980954
1.000000 0.000000 0.988474
1.000000 0.000000 0.986684
0.000000 0.241154 0.928157
0.000000 0.228910 0.929136
0.000000 0.220784 0.931002
0.453796 0.193593 0.937105
0.788569 0.112270 0.946984
1.000000 0.000000 0.960153
1.000000 0.000000 0.970338
1.000000 0.000000 0.974312
1.000000 0.000000 0.976174
0.000000 0.573039 0.910356
0.000000 0.568590 0.911218
0.000000 0.566656 0.913123
0.000000 0.558787 0.919442
0.630542 0.547229 0.929248
0.955072 0.527641 0.942765
1.000000 0.512027 0.953463
1.000000 0.522899 0.958319
1.000000 0.522266 0.958653
0.000000 0.794867 0.885259
0.000000 0.791718 0.885975
0.000000 0.790694 0.887930
0.000000 0.785995 0.894491
0.167767 0.778075 0.904731
0.794204 0.767305 0.918457
1.000000 0.757570 0.930196
1.000000 0.760767 0.933256
1.000000 0.759515 0.936322
0.000000 0.938298 0.861816
0.000000 0.935821 0.862547
0.000000 0.935081 0.864530
0.000000 0.931454 0.871287
0.000000 0.925302 0.881871
0.597526 0.916611 0.896067
0.908346 0.908923 0.908528
1.000000 0.912501 0.913993
1.000000 0.914818 0.916756
0.000000 1.000000 0.847252
0.000000 1.000000 0.849766
0.000000 1.000000 0.851381
0.000000 1.000000 0.857829
0.000000 1.000000 0.868261
0.412774 0.992309 0.882453
0.822047 0.984844 0.895215
0.969627 0.979791 0.902946
1.000000 0.975745 0.906499
0.000000 1.000000 0.841161
0.000000 1.000000 0.843652
0.000000 1.000000 0.845287
0.000000 1.000000 0.851800
0.000000 1.000000 0.862343
0.286117 1.000000 0.876680
0.782415 1.000000 0.889616
0.938886 1.000000 0.897403
0.993805 1.000000 0.900706
0.000000 0.000000 1.000000
0.000000 0.000000 1.000000
0.346407 0.000000 1.000000
0.638041 0.000000 1.000000
0.887866 0.000000 1.000000
1.000000 0.000000 1.000000
1.000000 0.000000 1.000000
1.000000 0.000000 1.000000
1.000000 0.000000 1.000000
0.000000 0.000000 1.000000
0.000000 0.000000 1.000000
0.348944 0.000000 1.000000
0.643126 0.000000 1.000000
0.894304 0.000000 1.000000
1.000000 0.000000 1.000000
1.000000 0.000000 1.000000
1.000000 0.000000 1.000000
1.000000 0.000000 1.000000
0.000000 0.000000 1.000000
0.000000 0.000000 1.000000
0.244338 0.000000 1.000000
0.605093 0.000000 1.000000
0.870170 0.000000 1.000000
1.000000 0.000000 1.000000
1.000000 0.000000 1.000000
1.000000 0.000000 1.000000
1.000000 0.000000 1.000000
0.000000 0.120759 0.992006
0.000000 0.074601 0.993054
0.000000 0.000000 0.994750
0.453412 0.000000 1.000000
0.788553 0.000000 1.000000
1.000000 0.000000 1.000000
1.000000 0.000000 1.000000
1.000000 0.000000 1.000000
1.000000 0.000000 1.000000
0.000000 0.548057 0.975821
0.000000 0.542754 0.976758
0.000000 0.540640 0.978485
0.000000 0.532246 0.984222
0.630528 0.520233 0.993132
0.955171 0.499184 1.000000
1.000000 0.479073 1.000000
1.000000 0.469034 1.000000
1.000000 0.478749 1.000000
0.000000 0.779334 0.953118
0.000000 0.775664 0.953913
0.000000 0.774585 0.955693
0.000000 0.769749 0.961603
0.166916 0.761575 0.970866
0.794311 0.750730 0.983306
1.000000 0.739724 0.994510
1.000000 0.733753 1.000000
1.000000 0.740180 1.000000
0.000000 0.926041 0.932043
0.000000 0.923002 0.932721
0.000000 0.922265 0.934541
0.000000 0.918608 0.940626
0.000000 0.912366 0.950164
0.597386 0.903497 0.963013
0.908864 0.895616 0.974349
1.000000 0.890641 0.980924
1.000000 0.892473 0.981767
0.000000 1.000000 0.919020
0.000000 0.997775 0.919654
0.000000 0.997161 0.921485
0.000000 0.993968 0.927682
0.000000 0.988425 0.937405
0.412823 0.980582 0.950466
0.821300 0.973336 0.962031
0.968884 0.968936 0.968905
1.000000 0.971098 0.971056
0.000000 1.000000 0.913589
0.000000 1.000000 0.915783
0.000000 1.000000 0.917299
0.000000 1.000000 0.923183
0.000000 1.000000 0.932660
0.283736 1.000000 0.945545
0.781379 1.000000 0.957010
0.937788 0.998641 0.963904
0.991477 0.997671 0.966608
0.000000 0.000000 1.000000
0.000000 0.000000 1.000000
0.345861 0.000000 1.000000
0.637809 0.000000 1.000000
0.887720 0.000000 1.000000
1.000000 0.000000 1.000000
1.000000 0.000000 1.000000
1.000000 0.000000 1.000000
1.000000 0.000000 1.000000
0.000000 0.000000 1.000000
0.000000 0.000000 1.000000
0.349259 0.000000 1.000000
0.643199 0.000000 1.000000
0.893886 0.000000 1.000000
1.000000 0.000000 1.000000
1.000000 0.000000 1.000000
1.000000 0.000000 1.000000
1.000000 0.000000 1.000000
0.000000 0.000000 1.000000
0.000000 0.000000 1.000000
0.244433 0.000000 1.000000
0.605230 0.000000 1.000000
0.869922 0.000000 1.000000
1.000000 0.000000 1.000000
1.000000 0.000000 1.000000
1.000000 0.000000 1.000000
1.000000 0.000000 1.000000
0.000000 0.000000 1.000000
0.000000 0.000000 1.000000
0.000000 0.000000 1.000000
0.453716 0.000000 1.000000
0.788533 0.000000 1.000000
1.000000 0.000000 1.000000
1.000000 0.000000 1.000000
1.000000 0.000000 1.000000
1.000000 0.000000 1.000000
0.000000 0.537308 1.000000
0.000000 0.531691 1.000000
0.000000 0.529628 1.000000
0.000000 0.521157 1.000000
0.630821 0.509244 1.000000
0.954968 0.487779 1.000000
1.000000 0.467003 1.000000
1.000000 0.455330 1.000000
1.000000 0.455010 1.000000
0.000000 0.772819 0.979146
0.000000 0.768831 0.979747
0.000000 0.767776 0.981460
0.000000 0.762923 0.987163
0.169223 0.754728 0.996098
0.794513 0.744062 1.000000
1.000000 0.733067 1.000000
1.000000 0.726465 1.000000
1.000000 0.726479 1.000000
0.000000 0.920934 0.958871
0.000000 0.917631 0.959477
0.000000 0.916914 0.961225
0.000000 0.913220 0.967084
0.000000 0.906945 0.976268
0.597676 0.898041 0.988641
0.909025 0.890323 0.999560
1.000000 0.885166 1.000000
1.000000 0.884210 1.000000
0.000000 0.996000 0.946363
0.000000 0.993004 0.946969
0.000000 0.992386 0.948741
0.000000 0.989159 0.954696
0.000000 0.983582 0.964042
0.413031 0.975682 0.976621
0.821357 0.968402 0.987759
0.969027 0.964115 0.994374
1.000000 0.963281 0.996859
0.000000 1.000000 0.941152
0.000000 1.000000 0.942151
0.000000 1.000000 0.943851
0.000000 1.000000 0.949758
0.000000 1.000000 0.959091
0.285159 1.000000 0.971691
0.781373 0.998270 0.982860
0.937657 0.994017 0.989523
0.991834 0.992449 0.992205
