NukeShared/Repository/_OCIO/From_SLog2SGumut_To_LC-709TypeA_.cube
TITLE 	
LUT_3D_SIZE 9
0.000000 0.000000 0.000000
0.174526 0.000000 0.002012
0.415341 0.000000 0.011497
0.640259 0.000000 0.052446
0.833504 0.000000 0.129927
0.985412 0.000000 0.252247
1.000000 0.000000 0.425176
1.000000 0.000000 0.598111
1.000000 0.000000 0.732431
0.000000 0.087881 0.004666
0.068983 0.081675 0.000807
0.373647 0.051233 0.001511
0.624873 0.000098 0.028234
0.827658 0.000000 0.108899
0.984556 0.000000 0.237561
1.000000 0.000000 0.417171
1.000000 0.000000 0.594734
1.000000 0.000000 0.731131
0.000000 0.274396 0.014574
0.000000 0.272289 0.014462
0.222624 0.262243 0.002666
0.584726 0.238180 0.000000
0.811059 0.184497 0.037063
0.980568 0.012161 0.201851
1.000000 0.000000 0.400912
1.000000 0.000000 0.588263
1.000000 0.000000 0.728722
0.000000 0.491265 0.026101
0.000000 0.490320 0.026051
0.000000 0.488489 0.025954
0.404736 0.474449 0.004480
0.762039 0.457943 0.000067
0.961988 0.419909 0.027095
1.000000 0.319102 0.340939
1.000000 0.000000 0.569659
1.000000 0.000000 0.723556
0.000000 0.683982 0.036343
0.000000 0.683595 0.036323
0.000000 0.682885 0.036285
0.000000 0.680992 0.036184
0.566847 0.664857 0.005412
0.894636 0.682229 0.015941
1.000000 0.620306 0.110305
1.000000 0.531226 0.502565
1.000000 0.158554 0.719117
0.000000 0.849523 0.045138
0.000000 0.849369 0.045130
0.000000 0.849087 0.045115
0.000000 0.848473 0.045082
0.000000 0.845769 0.044939
0.709738 0.827334 0.007401
0.954557 0.884832 0.038561
0.993271 0.801571 0.322609
1.000000 0.705207 0.660683
0.000000 0.979988 0.052067
0.000000 0.979949 0.052065
0.000000 0.979877 0.052061
0.000000 0.979721 0.052053
0.000000 0.979382 0.052035
0.067526 0.976744 0.000000
0.822018 0.959730 0.008076
0.915841 0.971759 0.028241
0.980852 0.953753 0.522240
0.000000 1.000000 0.053132
0.000000 1.000000 0.053132
0.000000 1.000000 0.053132
0.000000 1.000000 0.053132
0.000000 1.000000 0.053132
0.000000 1.000000 0.053132
0.497936 1.000000 0.000000
0.878059 0.983290 0.016710
0.886259 0.980667 0.019333
0.000000 1.000000 0.053132
0.000000 1.000000 0.053132
0.000000 1.000000 0.053132
0.000000 1.000000 0.053132
0.000000 1.000000 0.053132
0.000000 1.000000 0.053132
0.000000 1.000000 0.053132
0.686767 1.000000 0.000000
0.886259 0.980667 0.019333
0.001513 0.000000 0.102217
0.179117 0.000000 0.110911
0.418077 0.000000 0.133093
0.640894 0.000000 0.169643
0.833203 0.000000 0.229568
0.984933 0.000000 0.332579
1.000000 0.000000 0.469125
1.000000 0.000000 0.617520
1.000000 0.000000 0.740224
0.000000 0.088653 0.067619
0.079075 0.079956 0.079989
0.376621 0.042123 0.104950
0.625445 0.000008 0.147880
0.827303 0.000000 0.213986
0.984051 0.000000 0.321061
1.000000 0.000000 0.462643
1.000000 0.000000 0.614534
1.000000 0.000000 0.739010
0.000000 0.279742 0.014928
0.000000 0.277321 0.014923
0.228213 0.268020 0.009658
0.585327 0.240501 0.072483
0.810506 0.179737 0.165698
0.979798 0.013204 0.291032
1.000000 0.000000 0.449443
1.000000 0.000000 0.608940
1.000000 0.000000 0.736763
0.000000 0.494480 0.026273
0.000000 0.493549 0.026223
0.000000 0.491738 0.026127
0.406386 0.477626 0.004335
0.762123 0.459545 0.000073
0.961248 0.416850 0.185595
1.000000 0.309214 0.401621
1.000000 0.000000 0.592397
1.000000 0.000000 0.731679
0.000000 0.685304 0.036413
0.000000 0.684920 0.036393
0.000000 0.684214 0.036355
0.000000 0.682290 0.036253
0.567594 0.666285 0.005336
0.894264 0.683521 0.016216
1.000000 0.616136 0.253022
1.000000 0.528486 0.531791
1.000000 0.162775 0.727214
0.000000 0.850049 0.045166
0.000000 0.849896 0.045158
0.000000 0.849615 0.045143
0.000000 0.849002 0.045111
0.000000 0.846268 0.044965
0.710099 0.827900 0.007373
0.954508 0.885408 0.038570
0.998170 0.788834 0.380610
1.000000 0.703505 0.673869
0.000000 0.980122 0.052074
0.000000 0.980083 0.052072
0.000000 0.980011 0.052068
0.000000 0.979856 0.052060
0.000000 0.979516 0.052042
0.075863 0.976878 0.000000
0.822118 0.959897 0.008065
0.915714 0.971790 0.028209
0.982012 0.949652 0.546682
0.000000 1.000000 0.053132
0.000000 1.000000 0.053132
0.000000 1.000000 0.053132
0.000000 1.000000 0.053132
0.000000 1.000000 0.053132
0.000000 1.000000 0.053132
0.498532 1.000000 0.000000
0.878065 0.983289 0.016712
0.886259 0.980667 0.019333
0.000000 1.000000 0.053132
0.000000 1.000000 0.053132
0.000000 1.000000 0.053132
0.000000 1.000000 0.053132
0.000000 1.000000 0.053132
0.000000 1.000000 0.053132
0.000000 1.000000 0.053132
0.687190 1.000000 0.000000
0.886259 0.980667 0.019333
0.004344 0.000000 0.293412
0.197570 0.000000 0.298885
0.419780 0.000000 0.300635
0.640542 0.000000 0.332329
0.831912 0.000000 0.372499
0.984013 0.000000 0.437823
1.000000 0.000000 0.531732
1.000000 0.000000 0.646942
1.000000 0.000000 0.753642
0.002389 0.009790 0.276662
0.059795 0.007181 0.282431
0.377386 0.000000 0.283907
0.624536 0.000000 0.318760
0.825719 0.000000 0.361290
0.982977 0.000000 0.430181
1.000000 0.000000 0.526938
1.000000 0.000000 0.644633
1.000000 0.000000 0.752417
0.000000 0.269054 0.234395
0.000000 0.265619 0.240025
0.254342 0.254844 0.254883
0.584192 0.221129 0.283748
0.808438 0.136591 0.332554
0.978350 0.000000 0.410837
1.000000 0.000000 0.516859
1.000000 0.000000 0.640280
1.000000 0.000000 0.750326
0.000000 0.493352 0.090423
0.000000 0.492006 0.099904
0.000000 0.489436 0.119840
0.425092 0.475803 0.171555
0.760360 0.452155 0.245206
0.959436 0.403805 0.349352
1.000000 0.291445 0.481122
1.000000 0.000000 0.626940
1.000000 0.000000 0.745722
0.000000 0.687598 0.036536
0.000000 0.687128 0.036511
0.000000 0.686239 0.036463
0.000000 0.683802 0.036334
0.568014 0.665970 0.005477
0.906425 0.655212 0.147992
1.000000 0.607460 0.386131
1.000000 0.521824 0.577679
1.000000 0.167913 0.741007
0.000000 0.851012 0.045218
0.000000 0.850859 0.045209
0.000000 0.850579 0.045195
0.000000 0.849969 0.045162
0.000000 0.847180 0.045014
0.710762 0.828936 0.007320
0.953985 0.882536 0.038508
1.000000 0.778379 0.458697
1.000000 0.700582 0.695987
0.000000 0.980367 0.052087
0.000000 0.980328 0.052085
0.000000 0.980256 0.052081
0.000000 0.980101 0.052073
0.000000 0.979763 0.052055
0.091471 0.977123 0.000000
0.822302 0.960204 0.008045
0.915926 0.971738 0.028261
0.984336 0.942463 0.585461
0.000000 1.000000 0.053132
0.000000 1.000000 0.053132
0.000000 1.000000 0.053132
0.000000 1.000000 0.053132
0.000000 1.000000 0.053132
0.000000 1.000000 0.053132
0.499620 1.000000 0.000000
0.878074 0.983285 0.016715
0.886259 0.980667 0.019333
0.000000 1.000000 0.053132
0.000000 1.000000 0.053132
0.000000 1.000000 0.053132
0.000000 1.000000 0.053132
0.000000 1.000000 0.053132
0.000000 1.000000 0.053132
0.000000 1.000000 0.053132
0.687964 1.000000 0.000000
0.886259 0.980667 0.019333
0.007385 0.000000 0.498908
0.167916 0.000000 0.501268
0.421137 0.000000 0.505876
0.638930 0.000000 0.496507
0.829406 0.000000 0.532901
0.982517 0.000000 0.569435
1.000000 0.000000 0.623455
1.000000 0.000000 0.690831
1.000000 0.000000 0.781779
0.007277 0.000000 0.491581
0.014601 0.000000 0.493894
0.386569 0.000000 0.498703
0.621531 0.000000 0.489852
0.822225 0.000000 0.527192
0.981084 0.000000 0.565127
1.000000 0.000000 0.620562
1.000000 0.000000 0.689398
1.000000 0.000000 0.780727
0.000000 0.232343 0.474914
0.000000 0.224201 0.477278
0.242968 0.187683 0.482190
0.599344 0.112665 0.491264
0.806019 0.012212 0.514420
0.975532 0.000000 0.553753
1.000000 0.000000 0.613805
1.000000 0.000000 0.686706
1.000000 0.000000 0.778782
0.000000 0.470225 0.431603
0.000000 0.468667 0.434319
0.000000 0.465887 0.438085
0.451216 0.452880 0.453423
0.755213 0.427479 0.478484
0.955479 0.379345 0.521739
1.000000 0.255539 0.590407
1.000000 0.000000 0.677645
1.000000 0.000000 0.774482
0.000000 0.674585 0.320408
0.000000 0.673824 0.324709
0.000000 0.672440 0.332424
0.000000 0.668838 0.349005
0.606717 0.654413 0.389002
0.904762 0.631266 0.447038
1.000000 0.592140 0.533827
1.000000 0.509730 0.650011
1.000000 0.135115 0.763194
0.000000 0.851170 0.045226
0.000000 0.850839 0.045208
0.000000 0.850260 0.045178
0.000000 0.848956 0.045108
0.000000 0.844274 0.044859
0.727323 0.823192 0.173811
0.983693 0.817755 0.396228
1.000000 0.767687 0.568205
1.000000 0.694888 0.737544
0.000000 0.980898 0.052115
0.000000 0.980859 0.052113
0.000000 0.980788 0.052109
0.000000 0.980633 0.052101
0.000000 0.980297 0.052083
0.125417 0.977657 0.000000
0.822695 0.960863 0.008006
0.954402 0.975515 0.282421
0.990376 0.926116 0.646835
0.000000 1.000000 0.053132
0.000000 1.000000 0.053132
0.000000 1.000000 0.053132
0.000000 1.000000 0.053132
0.000000 1.000000 0.053132
0.000000 1.000000 0.053132
0.501974 1.000000 0.000000
0.878096 0.983278 0.016722
0.886259 0.980667 0.019333
0.000000 1.000000 0.053132
0.000000 1.000000 0.053132
0.000000 1.000000 0.053132
0.000000 1.000000 0.053132
0.000000 1.000000 0.053132
0.000000 1.000000 0.053132
0.000000 1.000000 0.053132
0.689638 1.000000 0.000000
0.886259 0.980667 0.019333
0.010046 0.000000 0.678528
0.164075 0.000000 0.679622
0.477429 0.000000 0.681830
0.638312 0.000000 0.686175
0.825912 0.000000 0.669924
0.980676 0.000000 0.692394
1.000000 0.000000 0.717370
1.000000 0.000000 0.759492
1.000000 0.000000 0.832022
0.009989 0.000000 0.674575
0.021600 0.000000 0.675660
0.432749 0.000000 0.677893
0.618243 0.000000 0.682522
0.817011 0.000000 0.666626
0.978219 0.000000 0.689835
1.000000 0.000000 0.716020
1.000000 0.000000 0.758305
1.000000 0.000000 0.831194
0.000000 0.096736 0.666011
0.000000 0.090330 0.667031
0.246051 0.093329 0.669243
0.575060 0.052625 0.675309
0.796915 0.000000 0.659752
0.971264 0.000000 0.683487
1.000000 0.000000 0.712052
1.000000 0.000000 0.756111
1.000000 0.000000 0.829668
0.000000 0.489409 0.647387
0.000000 0.488019 0.648377
0.000000 0.484781 0.650300
0.449962 0.418020 0.655458
0.763337 0.376572 0.664001
0.948094 0.341605 0.686186
1.000000 0.211438 0.717602
1.000000 0.000000 0.747090
1.000000 0.000000 0.826306
0.000000 0.646925 0.604921
0.000000 0.646285 0.605825
0.000000 0.645111 0.607441
0.000000 0.641501 0.610855
0.627306 0.628105 0.628461
0.898094 0.607050 0.650539
1.000000 0.571842 0.688520
1.000000 0.492821 0.750365
1.000000 0.144462 0.813115
0.000000 0.825022 0.517246
0.000000 0.824676 0.518842
0.000000 0.824046 0.521742
0.000000 0.822685 0.527935
0.000000 0.817866 0.542070
0.766631 0.803629 0.576438
0.986695 0.783146 0.623740
1.000000 0.751261 0.699336
1.000000 0.684993 0.803232
0.000000 0.976686 0.079046
0.000000 0.976424 0.087844
0.000000 0.975957 0.103172
0.000000 0.974984 0.132079
0.000000 0.972928 0.179514
0.157808 0.997139 0.296847
0.864058 0.945490 0.439481
0.984230 0.954313 0.597863
0.999570 0.898044 0.733709
0.000000 1.000000 0.053132
0.000000 1.000000 0.053132
0.000000 1.000000 0.053132
0.000000 1.000000 0.053132
0.000000 1.000000 0.053132
0.000000 1.000000 0.053132
0.507002 1.000000 0.000000
0.878146 0.983263 0.016738
0.944877 0.990380 0.520166
0.000000 1.000000 0.053132
0.000000 1.000000 0.053132
0.000000 1.000000 0.053132
0.000000 1.000000 0.053132
0.000000 1.000000 0.053132
0.000000 1.000000 0.053132
0.000000 1.000000 0.053132
0.692883 1.000000 0.000000
0.886259 0.980667 0.019333
0.015058 0.000000 0.837639
0.235684 0.000000 0.838290
0.509294 0.000000 0.839400
0.655423 0.000000 0.841635
0.822646 0.000000 0.843784
0.978534 0.000000 0.825103
1.000000 0.000000 0.838669
1.000000 0.000000 0.861828
1.000000 0.000000 0.900162
0.012364 0.000000 0.834959
0.097667 0.000000 0.835551
0.455733 0.000000 0.836731
0.643794 0.000000 0.839014
0.812467 0.000000 0.843251
0.973371 0.000000 0.822938
1.000000 0.000000 0.836768
1.000000 0.000000 0.861226
1.000000 0.000000 0.899766
0.000000 0.104404 0.830112
0.000000 0.098447 0.830604
0.284436 0.109217 0.831779
0.629006 0.074778 0.840761
0.788905 0.034800 0.838367
0.964347 0.000050 0.820726
1.000000 0.000000 0.832389
1.000000 0.000000 0.859112
1.000000 0.000000 0.899036
0.000000 0.470813 0.820487
0.000000 0.469233 0.820877
0.000000 0.463440 0.821863
0.459977 0.393338 0.824327
0.744659 0.366969 0.830331
0.965094 0.294915 0.835475
1.000000 0.201139 0.828740
1.000000 0.000000 0.850338
1.000000 0.000000 0.897368
0.000000 0.686362 0.802285
0.000000 0.685852 0.802688
0.000000 0.684917 0.803425
0.000000 0.680827 0.805483
0.627053 0.602302 0.810573
0.902536 0.570346 0.818330
0.999679 0.550297 0.835317
1.000000 0.482328 0.852750
1.000000 0.207806 0.885414
0.000000 0.795372 0.760964
0.000000 0.795130 0.761292
0.000000 0.794685 0.761886
0.000000 0.793719 0.763148
0.001946 0.790494 0.767190
0.783330 0.775883 0.786892
0.981462 0.759215 0.805452
1.000000 0.732037 0.837714
1.000000 0.675463 0.882902
0.000000 0.938835 0.691526
0.000000 0.938700 0.692174
0.000000 0.938441 0.693320
0.000000 0.937882 0.695794
0.000000 0.936679 0.701080
0.111274 0.978432 0.735633
0.888320 0.915846 0.743930
1.000000 0.902503 0.783852
1.000000 0.879895 0.845091
0.000000 1.000000 0.391424
0.000000 1.000000 0.394008
0.000000 1.000000 0.398691
0.000000 1.000000 0.408648
0.000000 1.000000 0.429298
0.000000 1.000000 0.467778
0.541378 1.000000 0.552383
0.940448 0.997787 0.640407
0.979080 0.991052 0.763545
0.000000 1.000000 0.053132
0.000000 1.000000 0.053132
0.000000 1.000000 0.053132
0.000000 1.000000 0.053132
0.000000 1.000000 0.053132
0.000000 1.000000 0.053132
0.000000 1.000000 0.053132
0.698830 1.000000 0.000000
0.886259 0.980667 0.019333
0.208951 0.039391 0.947290
0.377919 0.035552 0.947581
0.559669 0.025055 0.952013
0.709250 0.012295 0.953195
0.811335 0.000000 0.950831
0.965466 0.000000 0.941391
1.000000 0.000000 0.940113
1.000000 0.000000 0.951871
1.000000 0.000000 0.968123
0.079349 0.120711 0.945767
0.298232 0.135657 0.946066
0.493942 0.124948 0.946583
0.698158 0.096861 0.955319
0.803581 0.067096 0.951042
0.962798 0.018161 0.944091
1.000000 0.000000 0.938284
1.000000 0.000000 0.950103
1.000000 0.000000 0.967988
0.000000 0.267267 0.943125
0.092375 0.253416 0.943448
0.388238 0.269067 0.943972
0.645396 0.245190 0.947811
0.793892 0.201272 0.949938
0.952693 0.110373 0.944534
1.000000 0.030781 0.935528
1.000000 0.000000 0.946755
1.000000 0.000000 0.967740
0.000000 0.521104 0.938037
0.000000 0.518047 0.938339
0.102096 0.480068 0.938859
0.507168 0.441626 0.939926
0.783817 0.419622 0.946489
0.928009 0.392894 0.942591
1.000000 0.337930 0.933681
1.000000 0.110350 0.941520
1.000000 0.000000 0.962575
0.000000 0.699187 0.929343
0.000000 0.698841 0.929444
0.000000 0.698124 0.929628
0.068582 0.687087 0.930779
0.645487 0.606669 0.932749
0.883998 0.591052 0.936474
0.999882 0.568752 0.928073
1.000000 0.517537 0.936578
1.000000 0.359203 0.953649
0.000000 0.853581 0.915164
0.000000 0.853417 0.915290
0.000000 0.853115 0.915520
0.000000 0.852457 0.916019
0.108085 0.840494 0.920929
0.785331 0.761392 0.921692
0.980593 0.740852 0.925819
1.000000 0.728988 0.928503
1.000000 0.683170 0.942659
0.000000 0.910276 0.880454
0.000000 0.910201 0.880530
0.000000 0.910064 0.880670
0.000000 0.909766 0.880970
0.000000 0.909119 0.881612
0.317841 0.915657 0.899391
0.900341 0.892322 0.904720
0.998997 0.883024 0.915403
1.000000 0.868222 0.931905
0.000000 0.990862 0.842986
0.000000 0.990826 0.843201
0.000000 0.990759 0.843596
0.000000 0.990615 0.844452
0.000000 0.990301 0.846297
0.000000 0.989618 0.850243
0.554612 0.995796 0.868378
0.956201 0.971505 0.880078
0.999494 0.965669 0.904457
0.000000 1.000000 0.618798
0.000000 1.000000 0.619653
0.000000 1.000000 0.621213
0.000000 1.000000 0.624571
0.000000 1.000000 0.631715
0.000000 1.000000 0.646569
0.000000 1.000000 0.675900
0.774674 1.000000 0.734234
0.976130 0.996677 0.815275
0.478194 0.445791 0.997226
0.521458 0.443771 0.997403
0.591297 0.440070 0.997672
0.724907 0.432255 0.998240
0.852013 0.417055 0.998992
0.950552 0.387979 0.999396
1.000000 0.331446 0.992849
1.000000 0.186357 0.991306
1.000000 0.000000 0.989319
0.446948 0.460854 0.996293
0.500281 0.468877 0.996475
0.571482 0.465608 0.996767
0.701389 0.459144 0.997337
0.849888 0.446851 0.998474
0.945966 0.425271 0.999230
1.000000 0.375171 0.993319
1.000000 0.256150 0.992055
1.000000 0.000000 0.989319
0.373618 0.494198 0.994738
0.447101 0.495762 0.994898
0.539698 0.507929 0.995205
0.660830 0.502039 0.995758
0.836399 0.490684 0.997179
0.937572 0.471571 0.997929
1.000000 0.437425 0.993421
1.000000 0.345390 0.992999
1.000000 0.000000 0.989319
0.138258 0.646727 0.991711
0.271737 0.611541 0.991881
0.436223 0.564661 0.992171
0.603491 0.574820 0.992755
0.791489 0.566263 0.994126
0.921910 0.552773 0.995332
1.000000 0.529358 0.991986
1.000000 0.473083 0.993237
1.000000 0.284885 0.992362
0.000000 0.761542 0.986173
0.000000 0.760292 0.986400
0.023099 0.756240 0.986894
0.425669 0.699073 0.987448
0.695325 0.666727 0.988572
0.903978 0.655678 0.990812
0.997600 0.641089 0.987363
1.000000 0.612887 0.989806
1.000000 0.542382 0.992967
0.000000 0.881462 0.977704
0.000000 0.881330 0.977734
0.000000 0.881087 0.977788
0.000000 0.880111 0.978019
0.433375 0.838117 0.979721
0.806891 0.784828 0.981466
0.966734 0.774438 0.982921
1.000000 0.759253 0.982079
1.000000 0.727459 0.986741
0.000000 0.961878 0.967091
0.000000 0.961891 0.967126
0.000000 0.961900 0.967184
0.000000 0.961883 0.967302
0.000000 0.961836 0.967561
0.496001 0.938597 0.972371
0.905065 0.889780 0.972856
0.996176 0.882745 0.973725
1.000000 0.871611 0.977301
0.000000 0.973295 0.943612
0.000000 0.973280 0.943626
0.000000 0.973253 0.943652
0.000000 0.973195 0.943708
0.000000 0.973069 0.943828
0.000000 0.972794 0.944088
0.627027 0.973162 0.961438
0.961627 0.957868 0.964069
0.999817 0.953991 0.968940
0.000000 0.999918 0.931494
0.000000 0.999918 0.931538
0.000000 0.999917 0.931619
0.000000 0.999915 0.931795
0.000000 0.999911 0.932177
0.000000 0.999901 0.933001
0.000000 0.999879 0.934692
0.792485 0.997236 0.944920
0.986016 0.990912 0.954076
0.670400 0.676082 1.000000
0.690475 0.679621 1.000000
0.716964 0.678621 1.000000
0.773823 0.676325 1.000000
0.876967 0.671859 1.000000
0.941760 0.664316 1.000000
0.998173 0.651538 0.996487
1.000000 0.626911 0.996008
1.000000 0.563353 0.995340
0.658112 0.680206 1.000000
0.680962 0.685305 1.000000
0.710227 0.687131 1.000000
0.765783 0.684871 1.000000
0.871427 0.680469 1.000000
0.939300 0.673078 1.000000
0.997686 0.660621 0.996634
1.000000 0.636732 0.996113
1.000000 0.576906 0.995479
0.638328 0.693295 1.000000
0.660021 0.694045 1.000000
0.695416 0.698856 1.000000
0.752414 0.699918 1.000000
0.859637 0.695634 1.000000
0.936609 0.688498 1.000000
0.996710 0.676587 0.996899
1.000000 0.653942 0.996298
1.000000 0.600443 0.995723
0.591982 0.730550 1.000000
0.616273 0.724817 1.000000
0.656893 0.720146 1.000000
0.725895 0.725988 1.000000
0.827060 0.724089 1.000000
0.932928 0.717811 1.000000
0.994029 0.707881 0.997461
1.000000 0.688264 0.996666
1.000000 0.642344 0.996174
0.449636 0.826839 0.999977
0.493694 0.822196 0.999989
0.558094 0.811410 1.000000
0.652080 0.780327 1.000000
0.777525 0.773572 1.000000
0.915786 0.768845 1.000000
0.985410 0.760258 0.998610
1.000000 0.745283 0.997279
1.000000 0.713024 0.996932
0.000000 0.932920 0.997173
0.000000 0.932256 0.997339
0.000381 0.931102 0.997632
0.378619 0.898634 0.998206
0.651589 0.871978 0.998491
0.848814 0.839189 0.998957
0.964983 0.832920 0.999298
1.000000 0.823840 0.997683
1.000000 0.805855 0.997751
0.000000 0.980367 0.990494
0.000000 0.980358 0.990500
0.000000 0.980341 0.990513
0.000000 0.980304 0.990539
0.000000 0.979789 0.991170
0.677121 0.937217 0.993809
0.917045 0.905615 0.995086
0.993923 0.900949 0.995233
1.000000 0.894112 0.996000
0.000000 0.987560 0.974729
0.000000 0.987559 0.974734
0.000000 0.987557 0.974744
0.000000 0.987553 0.974765
0.000000 0.987545 0.974810
0.000000 0.987527 0.974909
0.742645 0.978270 0.989006
0.964753 0.957906 0.990548
0.999029 0.954855 0.991178
0.000000 0.999658 0.969896
0.000000 0.999657 0.969899
0.000000 0.999654 0.969906
0.000000 0.999650 0.969919
0.000000 0.999638 0.969938
0.000000 0.999613 0.969976
0.000000 0.999558 0.970060
0.834173 0.991793 0.984578
0.986475 0.985189 0.987455
